(1001)
(T1 D=3.175 CR=0. - ZMIN=-10.5 - FLAT END MILL)
G0 G90 G94 G17
G21
(-ATTENTION- PROPERTY SAFE RETRACTS IS SET TO CLEARANCE HEIGHT.)
(ENSURE THE CLEARANCE HEIGHT WILL CLEAR THE PART AND OR FIXTURES.)
(RAISE THE Z-AXIS TO A SAFE HEIGHT BEFORE STARTING THE PROGRAM.)
M5

(2D CONTOUR3)
T1
M3 S10000
G90 G94 G17
G54
M8
G0 X40.826 Y-17.365
Z16.
G0 Z6.
G1 Z3. F300.
Z0.317
X40.834 Y-17.366 Z0.247 F500.
X40.857 Y-17.371 Z0.18
X40.894 Y-17.377 Z0.12
X40.943 Y-17.386 Z0.069
X41.003 Y-17.397 Z0.031
X41.069 Y-17.409 Z0.008
X41.138 Y-17.421 Z0.
X41.451 Y-17.477
G3 X41.819 Y-17.22 I0.056 J0.313
G2 X43.382 Y-15.913 I1.563 J-0.28
G1 X48.794
Y20.913
X36.122
X14.752 Y-4.556
G2 X13.535 Y-5.123 I-1.216 J1.02
G1 X3.536
G2 X2.413 Y-4.658 I0. J1.588
G1 X-1.123 Y-1.123
G2 X-1.587 Y0. I1.123 J1.123
G1 Y20.
G2 X0. Y21.587 I1.587 J0.
G1 X2.957
Y25.
G2 X4.544 Y26.587 I1.588 J0.
G1 X17.957
Y26.668
X-0.276 Y29.883
G2 X-1.587 Y31.446 I0.276 J1.563
G1 Y41.446
G2 X-0.276 Y43.01 I1.587 J0.
G1 X17.957 Y46.224
Y46.305
X4.544
G2 X2.957 Y47.892 I0. J1.587
G1 Y51.305
X0.
G2 X-1.587 Y52.892 I0. J1.587
G1 Y72.892
G2 X-1.123 Y74.015 I1.587 J0.
G1 X2.413 Y77.55
G2 X3.536 Y78.015 I1.123 J-1.123
G1 X13.535
G2 X14.752 Y77.448 I0. J-1.588
G1 X36.122 Y51.98
X48.794
Y88.805
X43.382
G2 X41.794 Y90.392 I0. J1.588
G1 Y93.392
G2 X43.382 Y94.98 I1.588 J0.
G1 X75.382
G2 X76.969 Y93.392 I0. J-1.587
G1 Y90.392
G2 X75.382 Y88.805 I-1.588 J0.
G1 X68.786
X96.429 Y55.862
X102.688
G2 X103.099 Y55.808 I0. J-1.587
G1 X117.481 Y51.955
X166.995 Y45.875
X168.022 Y45.753
X168.025 Y45.752
X169.038 Y45.629
X169.041
X170.038 Y45.506
X170.041
X171.021 Y45.383
X171.024
X171.989 Y45.26
X171.993
X172.941 Y45.137
X172.944
X173.876 Y45.014
X173.88 Y45.013
X174.796 Y44.891
X174.8 Y44.89
X175.699 Y44.768
X175.702 Y44.767
X176.586 Y44.644
X176.59
X177.457 Y44.521
X177.462 Y44.52
X178.313 Y44.398
X178.317 Y44.397
X179.152 Y44.274
X179.156
X179.974 Y44.151
X179.979 Y44.15
X180.781 Y44.028
X180.786 Y44.027
X181.573 Y43.904
X181.578 Y43.903
X182.347 Y43.781
X182.352 Y43.78
X183.106 Y43.657
X183.111 Y43.656
X183.849 Y43.534
X183.855 Y43.533
X184.576 Y43.41
X184.582 Y43.409
X185.287 Y43.286
X185.293 Y43.285
X185.982 Y43.162
X185.989 Y43.161
X186.662 Y43.039
X186.669 Y43.037
X187.325 Y42.915
X187.332 Y42.913
X187.972 Y42.791
X187.979 Y42.789
X188.603 Y42.666
X188.611 Y42.665
X189.219 Y42.542
X189.227 Y42.54
X189.819 Y42.418
X189.828 Y42.416
X190.403 Y42.293
X190.412 Y42.291
X190.971 Y42.168
X190.981 Y42.166
X191.524 Y42.044
X191.534 Y42.041
X192.061 Y41.919
X192.072 Y41.916
X192.583 Y41.793
X192.595 Y41.79
X193.089 Y41.668
X193.101 Y41.665
X193.579 Y41.542
X193.591 Y41.539
X194.053 Y41.416
X194.067 Y41.412
X194.513 Y41.29
X194.529 Y41.285
X194.958 Y41.163
X194.972 Y41.158
X195.386 Y41.036
X195.404 Y41.03
X195.801 Y40.908
X195.819 Y40.902
X196.2 Y40.779
X196.22 Y40.773
X196.584 Y40.65
X196.604 Y40.643
X196.953 Y40.52
X196.976 Y40.512
X197.308 Y40.389
X197.333 Y40.38
X197.649 Y40.257
X197.675 Y40.247
X197.975 Y40.124
X198.003 Y40.112
X198.287 Y39.99
X198.321 Y39.975
X198.588 Y39.852
X198.62 Y39.837
X198.872 Y39.714
X198.912 Y39.694
X199.147 Y39.571
X199.191 Y39.547
X199.409 Y39.425
X199.451 Y39.4
X199.654 Y39.277
X199.707 Y39.244
X199.893 Y39.121
X199.945 Y39.086
X200.115 Y38.963
X200.179 Y38.915
X200.333 Y38.792
X200.403 Y38.733
X200.54 Y38.61
X200.607 Y38.547
X200.729 Y38.424
X200.809 Y38.337
X200.914 Y38.215
X200.993 Y38.115
X201.082 Y37.992
X201.161 Y37.871
X201.234 Y37.749
X201.274 Y37.678
X201.31 Y37.606
X201.367 Y37.483
X201.402 Y37.401
X201.433 Y37.317
X201.474 Y37.195
X201.503 Y37.096
X201.526 Y36.996
X201.55 Y36.874
X201.566 Y36.773
X201.576 Y36.672
X201.584 Y36.549
X201.588 Y36.446
X201.584 Y36.343
X201.576 Y36.22
X201.566 Y36.119
X201.55 Y36.019
X201.526 Y35.896
X201.503 Y35.796
X201.474 Y35.698
X201.433 Y35.575
X201.402 Y35.491
X201.367 Y35.409
X201.31 Y35.287
X201.274 Y35.214
X201.234 Y35.144
X201.161 Y35.021
X201.082 Y34.901
X200.993 Y34.778
X200.914 Y34.678
X200.809 Y34.555
X200.729 Y34.468
X200.607 Y34.345
X200.54 Y34.282
X200.403 Y34.159
X200.333 Y34.1
X200.179 Y33.978
X200.115 Y33.929
X199.945 Y33.807
X199.893 Y33.771
X199.707 Y33.649
X199.654 Y33.615
X199.451 Y33.492
X199.409 Y33.468
X199.191 Y33.345
X199.147 Y33.321
X198.912 Y33.198
X198.872 Y33.178
X198.62 Y33.056
X198.588 Y33.041
X198.321 Y32.918
X198.288 Y32.903
X198.004 Y32.78
X197.975 Y32.768
X197.675 Y32.646
X197.649 Y32.635
X197.333 Y32.512
X197.308 Y32.503
X196.976 Y32.38
X196.953 Y32.372
X196.604 Y32.249
X196.584 Y32.242
X196.22 Y32.12
X196.2 Y32.113
X195.819 Y31.99
X195.801 Y31.985
X195.404 Y31.862
X195.386 Y31.857
X194.972 Y31.734
X194.958 Y31.73
X194.529 Y31.607
X194.513 Y31.603
X194.067 Y31.48
X194.053 Y31.476
X193.591 Y31.354
X193.579 Y31.35
X193.101 Y31.228
X193.089 Y31.225
X192.595 Y31.102
X192.583 Y31.099
X192.072 Y30.976
X192.061 Y30.974
X191.534 Y30.851
X191.524 Y30.849
X190.981 Y30.726
X190.971 Y30.724
X190.412 Y30.601
X190.403 Y30.599
X189.828 Y30.476
X189.819 Y30.475
X189.227 Y30.352
X189.219 Y30.35
X188.611 Y30.227
X188.603 Y30.226
X187.979 Y30.103
X187.972 Y30.102
X187.332 Y29.979
X187.325 Y29.978
X186.669 Y29.855
X186.662 Y29.854
X185.989 Y29.731
X185.982 Y29.73
X185.293 Y29.607
X185.287 Y29.606
X184.582 Y29.483
X184.576 Y29.482
X183.855 Y29.36
X183.849 Y29.359
X183.111 Y29.236
X183.106 Y29.235
X182.352 Y29.112
X182.347
X181.578 Y28.989
X181.573 Y28.988
X180.786 Y28.865
X180.781
X179.979 Y28.742
X179.974 Y28.741
X179.156 Y28.619
X179.152 Y28.618
X178.317 Y28.495
X178.312
X177.461 Y28.372
X177.457 Y28.371
X176.59 Y28.249
X176.586 Y28.248
X175.702 Y28.125
X175.699
X174.8 Y28.002
X174.796
X173.88 Y27.879
X173.876 Y27.878
X172.944 Y27.756
X172.941 Y27.755
X171.993 Y27.633
X171.989 Y27.632
X171.024 Y27.509
X171.021
X170.041 Y27.386
X170.038
X169.041 Y27.263
X169.038
X168.025 Y27.14
X168.022
X166.995 Y27.017
X117.481 Y20.938
X103.099 Y17.084
G2 X102.688 Y17.03 I-0.411 J1.533
G1 X96.429
X68.786 Y-15.913
X75.382
G2 X76.969 Y-17.5 I0. J-1.587
G1 Y-20.5
G2 X75.382 Y-22.087 I-1.588 J0.
G1 X43.382
G2 X41.794 Y-20.5 I0. J1.587
G1 Y-17.5
G2 X41.819 Y-17.22 I1.588 J0.
G3 X41.563 Y-16.852 I-0.313 J0.056
G1 X41.25 Y-16.796
X41.181 Y-16.783 Z0.008
X41.115 Y-16.772 Z0.031
X41.055 Y-16.761 Z0.069
X41.006 Y-16.752 Z0.12
X40.969 Y-16.745 Z0.18
X40.945 Y-16.741 Z0.247
X40.938 Y-16.74 Z0.317
X40.826 Y-17.365
Z-0.683 F300.
X40.834 Y-17.366 Z-0.753 F500.
X40.857 Y-17.371 Z-0.82
X40.894 Y-17.377 Z-0.88
X40.943 Y-17.386 Z-0.931
X41.003 Y-17.397 Z-0.969
X41.069 Y-17.409 Z-0.992
X41.138 Y-17.421 Z-1.
X41.451 Y-17.477
G3 X41.819 Y-17.22 I0.056 J0.313
G2 X43.382 Y-15.913 I1.563 J-0.28
G1 X48.794
Y20.913
X36.122
X14.752 Y-4.556
G2 X13.535 Y-5.123 I-1.216 J1.02
G1 X3.536
G2 X2.413 Y-4.658 I0. J1.588
G1 X-1.123 Y-1.123
G2 X-1.587 Y0. I1.123 J1.123
G1 Y20.
G2 X0. Y21.587 I1.587 J0.
G1 X2.957
Y25.
G2 X4.544 Y26.587 I1.588 J0.
G1 X17.957
Y26.668
X-0.276 Y29.883
G2 X-1.587 Y31.446 I0.276 J1.563
G1 Y41.446
G2 X-0.276 Y43.01 I1.587 J0.
G1 X17.957 Y46.224
Y46.305
X4.544
G2 X2.957 Y47.892 I0. J1.587
G1 Y51.305
X0.
G2 X-1.587 Y52.892 I0. J1.587
G1 Y72.892
G2 X-1.123 Y74.015 I1.587 J0.
G1 X2.413 Y77.55
G2 X3.536 Y78.015 I1.123 J-1.123
G1 X13.535
G2 X14.752 Y77.448 I0. J-1.588
G1 X36.122 Y51.98
X48.794
Y88.805
X43.382
G2 X41.794 Y90.392 I0. J1.588
G1 Y93.392
G2 X43.382 Y94.98 I1.588 J0.
G1 X75.382
G2 X76.969 Y93.392 I0. J-1.587
G1 Y90.392
G2 X75.382 Y88.805 I-1.588 J0.
G1 X68.786
X96.429 Y55.862
X102.688
G2 X103.099 Y55.808 I0. J-1.587
G1 X117.481 Y51.955
X166.995 Y45.875
X168.022 Y45.753
X168.025 Y45.752
X169.038 Y45.629
X169.041
X170.038 Y45.506
X170.041
X171.021 Y45.383
X171.024
X171.989 Y45.26
X171.993
X172.941 Y45.137
X172.944
X173.876 Y45.014
X173.88 Y45.013
X174.796 Y44.891
X174.8 Y44.89
X175.699 Y44.768
X175.702 Y44.767
X176.586 Y44.644
X176.59
X177.457 Y44.521
X177.462 Y44.52
X178.313 Y44.398
X178.317 Y44.397
X179.152 Y44.274
X179.156
X179.974 Y44.151
X179.979 Y44.15
X180.781 Y44.028
X180.786 Y44.027
X181.573 Y43.904
X181.578 Y43.903
X182.347 Y43.781
X182.352 Y43.78
X183.106 Y43.657
X183.111 Y43.656
X183.849 Y43.534
X183.855 Y43.533
X184.576 Y43.41
X184.582 Y43.409
X185.287 Y43.286
X185.293 Y43.285
X185.982 Y43.162
X185.989 Y43.161
X186.662 Y43.039
X186.669 Y43.037
X187.325 Y42.915
X187.332 Y42.913
X187.972 Y42.791
X187.979 Y42.789
X188.603 Y42.666
X188.611 Y42.665
X189.219 Y42.542
X189.227 Y42.54
X189.819 Y42.418
X189.828 Y42.416
X190.403 Y42.293
X190.412 Y42.291
X190.971 Y42.168
X190.981 Y42.166
X191.524 Y42.044
X191.534 Y42.041
X192.061 Y41.919
X192.072 Y41.916
X192.583 Y41.793
X192.595 Y41.79
X193.089 Y41.668
X193.101 Y41.665
X193.579 Y41.542
X193.591 Y41.539
X194.053 Y41.416
X194.067 Y41.412
X194.513 Y41.29
X194.529 Y41.285
X194.958 Y41.163
X194.972 Y41.158
X195.386 Y41.036
X195.404 Y41.03
X195.801 Y40.908
X195.819 Y40.902
X196.2 Y40.779
X196.22 Y40.773
X196.584 Y40.65
X196.604 Y40.643
X196.953 Y40.52
X196.976 Y40.512
X197.308 Y40.389
X197.333 Y40.38
X197.649 Y40.257
X197.675 Y40.247
X197.975 Y40.124
X198.003 Y40.112
X198.287 Y39.99
X198.321 Y39.975
X198.588 Y39.852
X198.62 Y39.837
X198.872 Y39.714
X198.912 Y39.694
X199.147 Y39.571
X199.191 Y39.547
X199.409 Y39.425
X199.451 Y39.4
X199.654 Y39.277
X199.707 Y39.244
X199.893 Y39.121
X199.945 Y39.086
X200.115 Y38.963
X200.179 Y38.915
X200.333 Y38.792
X200.403 Y38.733
X200.54 Y38.61
X200.607 Y38.547
X200.729 Y38.424
X200.809 Y38.337
X200.914 Y38.215
X200.993 Y38.115
X201.082 Y37.992
X201.161 Y37.871
X201.234 Y37.749
X201.274 Y37.678
X201.31 Y37.606
X201.367 Y37.483
X201.402 Y37.401
X201.433 Y37.317
X201.474 Y37.195
X201.503 Y37.096
X201.526 Y36.996
X201.55 Y36.874
X201.566 Y36.773
X201.576 Y36.672
X201.584 Y36.549
X201.588 Y36.446
X201.584 Y36.343
X201.576 Y36.22
X201.566 Y36.119
X201.55 Y36.019
X201.526 Y35.896
X201.503 Y35.796
X201.474 Y35.698
X201.433 Y35.575
X201.402 Y35.491
X201.367 Y35.409
X201.31 Y35.287
X201.274 Y35.214
X201.234 Y35.144
X201.161 Y35.021
X201.082 Y34.901
X200.993 Y34.778
X200.914 Y34.678
X200.809 Y34.555
X200.729 Y34.468
X200.607 Y34.345
X200.54 Y34.282
X200.403 Y34.159
X200.333 Y34.1
X200.179 Y33.978
X200.115 Y33.929
X199.945 Y33.807
X199.893 Y33.771
X199.707 Y33.649
X199.654 Y33.615
X199.451 Y33.492
X199.409 Y33.468
X199.191 Y33.345
X199.147 Y33.321
X198.912 Y33.198
X198.872 Y33.178
X198.62 Y33.056
X198.588 Y33.041
X198.321 Y32.918
X198.288 Y32.903
X198.004 Y32.78
X197.975 Y32.768
X197.675 Y32.646
X197.649 Y32.635
X197.333 Y32.512
X197.308 Y32.503
X196.976 Y32.38
X196.953 Y32.372
X196.604 Y32.249
X196.584 Y32.242
X196.22 Y32.12
X196.2 Y32.113
X195.819 Y31.99
X195.801 Y31.985
X195.404 Y31.862
X195.386 Y31.857
X194.972 Y31.734
X194.958 Y31.73
X194.529 Y31.607
X194.513 Y31.603
X194.067 Y31.48
X194.053 Y31.476
X193.591 Y31.354
X193.579 Y31.35
X193.101 Y31.228
X193.089 Y31.225
X192.595 Y31.102
X192.583 Y31.099
X192.072 Y30.976
X192.061 Y30.974
X191.534 Y30.851
X191.524 Y30.849
X190.981 Y30.726
X190.971 Y30.724
X190.412 Y30.601
X190.403 Y30.599
X189.828 Y30.476
X189.819 Y30.475
X189.227 Y30.352
X189.219 Y30.35
X188.611 Y30.227
X188.603 Y30.226
X187.979 Y30.103
X187.972 Y30.102
X187.332 Y29.979
X187.325 Y29.978
X186.669 Y29.855
X186.662 Y29.854
X185.989 Y29.731
X185.982 Y29.73
X185.293 Y29.607
X185.287 Y29.606
X184.582 Y29.483
X184.576 Y29.482
X183.855 Y29.36
X183.849 Y29.359
X183.111 Y29.236
X183.106 Y29.235
X182.352 Y29.112
X182.347
X181.578 Y28.989
X181.573 Y28.988
X180.786 Y28.865
X180.781
X179.979 Y28.742
X179.974 Y28.741
X179.156 Y28.619
X179.152 Y28.618
X178.317 Y28.495
X178.312
X177.461 Y28.372
X177.457 Y28.371
X176.59 Y28.249
X176.586 Y28.248
X175.702 Y28.125
X175.699
X174.8 Y28.002
X174.796
X173.88 Y27.879
X173.876 Y27.878
X172.944 Y27.756
X172.941 Y27.755
X171.993 Y27.633
X171.989 Y27.632
X171.024 Y27.509
X171.021
X170.041 Y27.386
X170.038
X169.041 Y27.263
X169.038
X168.025 Y27.14
X168.022
X166.995 Y27.017
X117.481 Y20.938
X103.099 Y17.084
G2 X102.688 Y17.03 I-0.411 J1.533
G1 X96.429
X68.786 Y-15.913
X75.382
G2 X76.969 Y-17.5 I0. J-1.587
G1 Y-20.5
G2 X75.382 Y-22.087 I-1.588 J0.
G1 X43.382
G2 X41.794 Y-20.5 I0. J1.587
G1 Y-17.5
G2 X41.819 Y-17.22 I1.588 J0.
G3 X41.563 Y-16.852 I-0.313 J0.056
G1 X41.25 Y-16.796
X41.181 Y-16.783 Z-0.992
X41.115 Y-16.772 Z-0.969
X41.055 Y-16.761 Z-0.931
X41.006 Y-16.752 Z-0.88
X40.969 Y-16.745 Z-0.82
X40.945 Y-16.741 Z-0.753
X40.938 Y-16.74 Z-0.683
X40.826 Y-17.365
Z-1.683 F300.
X40.834 Y-17.366 Z-1.753 F500.
X40.857 Y-17.371 Z-1.82
X40.894 Y-17.377 Z-1.88
X40.943 Y-17.386 Z-1.931
X41.003 Y-17.397 Z-1.969
X41.069 Y-17.409 Z-1.992
X41.138 Y-17.421 Z-2.
X41.451 Y-17.477
G3 X41.819 Y-17.22 I0.056 J0.313
G2 X43.382 Y-15.913 I1.563 J-0.28
G1 X48.794
Y20.913
X36.122
X14.752 Y-4.556
G2 X13.535 Y-5.123 I-1.216 J1.02
G1 X3.536
G2 X2.413 Y-4.658 I0. J1.588
G1 X-1.123 Y-1.123
G2 X-1.587 Y0. I1.123 J1.123
G1 Y20.
G2 X0. Y21.587 I1.587 J0.
G1 X2.957
Y25.
G2 X4.544 Y26.587 I1.588 J0.
G1 X17.957
Y26.668
X-0.276 Y29.883
G2 X-1.587 Y31.446 I0.276 J1.563
G1 Y41.446
G2 X-0.276 Y43.01 I1.587 J0.
G1 X17.957 Y46.224
Y46.305
X4.544
G2 X2.957 Y47.892 I0. J1.587
G1 Y51.305
X0.
G2 X-1.587 Y52.892 I0. J1.587
G1 Y72.892
G2 X-1.123 Y74.015 I1.587 J0.
G1 X2.413 Y77.55
G2 X3.536 Y78.015 I1.123 J-1.123
G1 X13.535
G2 X14.752 Y77.448 I0. J-1.588
G1 X36.122 Y51.98
X48.794
Y88.805
X43.382
G2 X41.794 Y90.392 I0. J1.588
G1 Y93.392
G2 X43.382 Y94.98 I1.588 J0.
G1 X75.382
G2 X76.969 Y93.392 I0. J-1.587
G1 Y90.392
G2 X75.382 Y88.805 I-1.588 J0.
G1 X68.786
X96.429 Y55.862
X102.688
G2 X103.099 Y55.808 I0. J-1.587
G1 X117.481 Y51.955
X166.995 Y45.875
X168.022 Y45.753
X168.025 Y45.752
X169.038 Y45.629
X169.041
X170.038 Y45.506
X170.041
X171.021 Y45.383
X171.024
X171.989 Y45.26
X171.993
X172.941 Y45.137
X172.944
X173.876 Y45.014
X173.88 Y45.013
X174.796 Y44.891
X174.8 Y44.89
X175.699 Y44.768
X175.702 Y44.767
X176.586 Y44.644
X176.59
X177.457 Y44.521
X177.462 Y44.52
X178.313 Y44.398
X178.317 Y44.397
X179.152 Y44.274
X179.156
X179.974 Y44.151
X179.979 Y44.15
X180.781 Y44.028
X180.786 Y44.027
X181.573 Y43.904
X181.578 Y43.903
X182.347 Y43.781
X182.352 Y43.78
X183.106 Y43.657
X183.111 Y43.656
X183.849 Y43.534
X183.855 Y43.533
X184.576 Y43.41
X184.582 Y43.409
X185.287 Y43.286
X185.293 Y43.285
X185.982 Y43.162
X185.989 Y43.161
X186.662 Y43.039
X186.669 Y43.037
X187.325 Y42.915
X187.332 Y42.913
X187.972 Y42.791
X187.979 Y42.789
X188.603 Y42.666
X188.611 Y42.665
X189.219 Y42.542
X189.227 Y42.54
X189.819 Y42.418
X189.828 Y42.416
X190.403 Y42.293
X190.412 Y42.291
X190.971 Y42.168
X190.981 Y42.166
X191.524 Y42.044
X191.534 Y42.041
X192.061 Y41.919
X192.072 Y41.916
X192.583 Y41.793
X192.595 Y41.79
X193.089 Y41.668
X193.101 Y41.665
X193.579 Y41.542
X193.591 Y41.539
X194.053 Y41.416
X194.067 Y41.412
X194.513 Y41.29
X194.529 Y41.285
X194.958 Y41.163
X194.972 Y41.158
X195.386 Y41.036
X195.404 Y41.03
X195.801 Y40.908
X195.819 Y40.902
X196.2 Y40.779
X196.22 Y40.773
X196.584 Y40.65
X196.604 Y40.643
X196.953 Y40.52
X196.976 Y40.512
X197.308 Y40.389
X197.333 Y40.38
X197.649 Y40.257
X197.675 Y40.247
X197.975 Y40.124
X198.003 Y40.112
X198.287 Y39.99
X198.321 Y39.975
X198.588 Y39.852
X198.62 Y39.837
X198.872 Y39.714
X198.912 Y39.694
X199.147 Y39.571
X199.191 Y39.547
X199.409 Y39.425
X199.451 Y39.4
X199.654 Y39.277
X199.707 Y39.244
X199.893 Y39.121
X199.945 Y39.086
X200.115 Y38.963
X200.179 Y38.915
X200.333 Y38.792
X200.403 Y38.733
X200.54 Y38.61
X200.607 Y38.547
X200.729 Y38.424
X200.809 Y38.337
X200.914 Y38.215
X200.993 Y38.115
X201.082 Y37.992
X201.161 Y37.871
X201.234 Y37.749
X201.274 Y37.678
X201.31 Y37.606
X201.367 Y37.483
X201.402 Y37.401
X201.433 Y37.317
X201.474 Y37.195
X201.503 Y37.096
X201.526 Y36.996
X201.55 Y36.874
X201.566 Y36.773
X201.576 Y36.672
X201.584 Y36.549
X201.588 Y36.446
X201.584 Y36.343
X201.576 Y36.22
X201.566 Y36.119
X201.55 Y36.019
X201.526 Y35.896
X201.503 Y35.796
X201.474 Y35.698
X201.433 Y35.575
X201.402 Y35.491
X201.367 Y35.409
X201.31 Y35.287
X201.274 Y35.214
X201.234 Y35.144
X201.161 Y35.021
X201.082 Y34.901
X200.993 Y34.778
X200.914 Y34.678
X200.809 Y34.555
X200.729 Y34.468
X200.607 Y34.345
X200.54 Y34.282
X200.403 Y34.159
X200.333 Y34.1
X200.179 Y33.978
X200.115 Y33.929
X199.945 Y33.807
X199.893 Y33.771
X199.707 Y33.649
X199.654 Y33.615
X199.451 Y33.492
X199.409 Y33.468
X199.191 Y33.345
X199.147 Y33.321
X198.912 Y33.198
X198.872 Y33.178
X198.62 Y33.056
X198.588 Y33.041
X198.321 Y32.918
X198.288 Y32.903
X198.004 Y32.78
X197.975 Y32.768
X197.675 Y32.646
X197.649 Y32.635
X197.333 Y32.512
X197.308 Y32.503
X196.976 Y32.38
X196.953 Y32.372
X196.604 Y32.249
X196.584 Y32.242
X196.22 Y32.12
X196.2 Y32.113
X195.819 Y31.99
X195.801 Y31.985
X195.404 Y31.862
X195.386 Y31.857
X194.972 Y31.734
X194.958 Y31.73
X194.529 Y31.607
X194.513 Y31.603
X194.067 Y31.48
X194.053 Y31.476
X193.591 Y31.354
X193.579 Y31.35
X193.101 Y31.228
X193.089 Y31.225
X192.595 Y31.102
X192.583 Y31.099
X192.072 Y30.976
X192.061 Y30.974
X191.534 Y30.851
X191.524 Y30.849
X190.981 Y30.726
X190.971 Y30.724
X190.412 Y30.601
X190.403 Y30.599
X189.828 Y30.476
X189.819 Y30.475
X189.227 Y30.352
X189.219 Y30.35
X188.611 Y30.227
X188.603 Y30.226
X187.979 Y30.103
X187.972 Y30.102
X187.332 Y29.979
X187.325 Y29.978
X186.669 Y29.855
X186.662 Y29.854
X185.989 Y29.731
X185.982 Y29.73
X185.293 Y29.607
X185.287 Y29.606
X184.582 Y29.483
X184.576 Y29.482
X183.855 Y29.36
X183.849 Y29.359
X183.111 Y29.236
X183.106 Y29.235
X182.352 Y29.112
X182.347
X181.578 Y28.989
X181.573 Y28.988
X180.786 Y28.865
X180.781
X179.979 Y28.742
X179.974 Y28.741
X179.156 Y28.619
X179.152 Y28.618
X178.317 Y28.495
X178.312
X177.461 Y28.372
X177.457 Y28.371
X176.59 Y28.249
X176.586 Y28.248
X175.702 Y28.125
X175.699
X174.8 Y28.002
X174.796
X173.88 Y27.879
X173.876 Y27.878
X172.944 Y27.756
X172.941 Y27.755
X171.993 Y27.633
X171.989 Y27.632
X171.024 Y27.509
X171.021
X170.041 Y27.386
X170.038
X169.041 Y27.263
X169.038
X168.025 Y27.14
X168.022
X166.995 Y27.017
X117.481 Y20.938
X103.099 Y17.084
G2 X102.688 Y17.03 I-0.411 J1.533
G1 X96.429
X68.786 Y-15.913
X75.382
G2 X76.969 Y-17.5 I0. J-1.587
G1 Y-20.5
G2 X75.382 Y-22.087 I-1.588 J0.
G1 X43.382
G2 X41.794 Y-20.5 I0. J1.587
G1 Y-17.5
G2 X41.819 Y-17.22 I1.588 J0.
G3 X41.563 Y-16.852 I-0.313 J0.056
G1 X41.25 Y-16.796
X41.181 Y-16.783 Z-1.992
X41.115 Y-16.772 Z-1.969
X41.055 Y-16.761 Z-1.931
X41.006 Y-16.752 Z-1.88
X40.969 Y-16.745 Z-1.82
X40.945 Y-16.741 Z-1.753
X40.938 Y-16.74 Z-1.683
X40.826 Y-17.365
Z-2.683 F300.
X40.834 Y-17.366 Z-2.753 F500.
X40.857 Y-17.371 Z-2.82
X40.894 Y-17.377 Z-2.88
X40.943 Y-17.386 Z-2.931
X41.003 Y-17.397 Z-2.969
X41.069 Y-17.409 Z-2.992
X41.138 Y-17.421 Z-3.
X41.451 Y-17.477
G3 X41.819 Y-17.22 I0.056 J0.313
G2 X43.382 Y-15.913 I1.563 J-0.28
G1 X48.794
Y20.913
X36.122
X14.752 Y-4.556
G2 X13.535 Y-5.123 I-1.216 J1.02
G1 X3.536
G2 X2.413 Y-4.658 I0. J1.588
G1 X-1.123 Y-1.123
G2 X-1.587 Y0. I1.123 J1.123
G1 Y20.
G2 X0. Y21.587 I1.587 J0.
G1 X2.957
Y25.
G2 X4.544 Y26.587 I1.588 J0.
G1 X17.957
Y26.668
X-0.276 Y29.883
G2 X-1.587 Y31.446 I0.276 J1.563
G1 Y41.446
G2 X-0.276 Y43.01 I1.587 J0.
G1 X17.957 Y46.224
Y46.305
X4.544
G2 X2.957 Y47.892 I0. J1.587
G1 Y51.305
X0.
G2 X-1.587 Y52.892 I0. J1.587
G1 Y72.892
G2 X-1.123 Y74.015 I1.587 J0.
G1 X2.413 Y77.55
G2 X3.536 Y78.015 I1.123 J-1.123
G1 X13.535
G2 X14.752 Y77.448 I0. J-1.588
G1 X36.122 Y51.98
X48.794
Y88.805
X43.382
G2 X41.794 Y90.392 I0. J1.588
G1 Y93.392
G2 X43.382 Y94.98 I1.588 J0.
G1 X75.382
G2 X76.969 Y93.392 I0. J-1.587
G1 Y90.392
G2 X75.382 Y88.805 I-1.588 J0.
G1 X68.786
X96.429 Y55.862
X102.688
G2 X103.099 Y55.808 I0. J-1.587
G1 X117.481 Y51.955
X166.995 Y45.875
X168.022 Y45.753
X168.025 Y45.752
X169.038 Y45.629
X169.041
X170.038 Y45.506
X170.041
X171.021 Y45.383
X171.024
X171.989 Y45.26
X171.993
X172.941 Y45.137
X172.944
X173.876 Y45.014
X173.88 Y45.013
X174.796 Y44.891
X174.8 Y44.89
X175.699 Y44.768
X175.702 Y44.767
X176.586 Y44.644
X176.59
X177.457 Y44.521
X177.462 Y44.52
X178.313 Y44.398
X178.317 Y44.397
X179.152 Y44.274
X179.156
X179.974 Y44.151
X179.979 Y44.15
X180.781 Y44.028
X180.786 Y44.027
X181.573 Y43.904
X181.578 Y43.903
X182.347 Y43.781
X182.352 Y43.78
X183.106 Y43.657
X183.111 Y43.656
X183.849 Y43.534
X183.855 Y43.533
X184.576 Y43.41
X184.582 Y43.409
X185.287 Y43.286
X185.293 Y43.285
X185.982 Y43.162
X185.989 Y43.161
X186.662 Y43.039
X186.669 Y43.037
X187.325 Y42.915
X187.332 Y42.913
X187.972 Y42.791
X187.979 Y42.789
X188.603 Y42.666
X188.611 Y42.665
X189.219 Y42.542
X189.227 Y42.54
X189.819 Y42.418
X189.828 Y42.416
X190.403 Y42.293
X190.412 Y42.291
X190.971 Y42.168
X190.981 Y42.166
X191.524 Y42.044
X191.534 Y42.041
X192.061 Y41.919
X192.072 Y41.916
X192.583 Y41.793
X192.595 Y41.79
X193.089 Y41.668
X193.101 Y41.665
X193.579 Y41.542
X193.591 Y41.539
X194.053 Y41.416
X194.067 Y41.412
X194.513 Y41.29
X194.529 Y41.285
X194.958 Y41.163
X194.972 Y41.158
X195.386 Y41.036
X195.404 Y41.03
X195.801 Y40.908
X195.819 Y40.902
X196.2 Y40.779
X196.22 Y40.773
X196.584 Y40.65
X196.604 Y40.643
X196.953 Y40.52
X196.976 Y40.512
X197.308 Y40.389
X197.333 Y40.38
X197.649 Y40.257
X197.675 Y40.247
X197.975 Y40.124
X198.003 Y40.112
X198.287 Y39.99
X198.321 Y39.975
X198.588 Y39.852
X198.62 Y39.837
X198.872 Y39.714
X198.912 Y39.694
X199.147 Y39.571
X199.191 Y39.547
X199.409 Y39.425
X199.451 Y39.4
X199.654 Y39.277
X199.707 Y39.244
X199.893 Y39.121
X199.945 Y39.086
X200.115 Y38.963
X200.179 Y38.915
X200.333 Y38.792
X200.403 Y38.733
X200.54 Y38.61
X200.607 Y38.547
X200.729 Y38.424
X200.809 Y38.337
X200.914 Y38.215
X200.993 Y38.115
X201.082 Y37.992
X201.161 Y37.871
X201.234 Y37.749
X201.274 Y37.678
X201.31 Y37.606
X201.367 Y37.483
X201.402 Y37.401
X201.433 Y37.317
X201.474 Y37.195
X201.503 Y37.096
X201.526 Y36.996
X201.55 Y36.874
X201.566 Y36.773
X201.576 Y36.672
X201.584 Y36.549
X201.588 Y36.446
X201.584 Y36.343
X201.576 Y36.22
X201.566 Y36.119
X201.55 Y36.019
X201.526 Y35.896
X201.503 Y35.796
X201.474 Y35.698
X201.433 Y35.575
X201.402 Y35.491
X201.367 Y35.409
X201.31 Y35.287
X201.274 Y35.214
X201.234 Y35.144
X201.161 Y35.021
X201.082 Y34.901
X200.993 Y34.778
X200.914 Y34.678
X200.809 Y34.555
X200.729 Y34.468
X200.607 Y34.345
X200.54 Y34.282
X200.403 Y34.159
X200.333 Y34.1
X200.179 Y33.978
X200.115 Y33.929
X199.945 Y33.807
X199.893 Y33.771
X199.707 Y33.649
X199.654 Y33.615
X199.451 Y33.492
X199.409 Y33.468
X199.191 Y33.345
X199.147 Y33.321
X198.912 Y33.198
X198.872 Y33.178
X198.62 Y33.056
X198.588 Y33.041
X198.321 Y32.918
X198.288 Y32.903
X198.004 Y32.78
X197.975 Y32.768
X197.675 Y32.646
X197.649 Y32.635
X197.333 Y32.512
X197.308 Y32.503
X196.976 Y32.38
X196.953 Y32.372
X196.604 Y32.249
X196.584 Y32.242
X196.22 Y32.12
X196.2 Y32.113
X195.819 Y31.99
X195.801 Y31.985
X195.404 Y31.862
X195.386 Y31.857
X194.972 Y31.734
X194.958 Y31.73
X194.529 Y31.607
X194.513 Y31.603
X194.067 Y31.48
X194.053 Y31.476
X193.591 Y31.354
X193.579 Y31.35
X193.101 Y31.228
X193.089 Y31.225
X192.595 Y31.102
X192.583 Y31.099
X192.072 Y30.976
X192.061 Y30.974
X191.534 Y30.851
X191.524 Y30.849
X190.981 Y30.726
X190.971 Y30.724
X190.412 Y30.601
X190.403 Y30.599
X189.828 Y30.476
X189.819 Y30.475
X189.227 Y30.352
X189.219 Y30.35
X188.611 Y30.227
X188.603 Y30.226
X187.979 Y30.103
X187.972 Y30.102
X187.332 Y29.979
X187.325 Y29.978
X186.669 Y29.855
X186.662 Y29.854
X185.989 Y29.731
X185.982 Y29.73
X185.293 Y29.607
X185.287 Y29.606
X184.582 Y29.483
X184.576 Y29.482
X183.855 Y29.36
X183.849 Y29.359
X183.111 Y29.236
X183.106 Y29.235
X182.352 Y29.112
X182.347
X181.578 Y28.989
X181.573 Y28.988
X180.786 Y28.865
X180.781
X179.979 Y28.742
X179.974 Y28.741
X179.156 Y28.619
X179.152 Y28.618
X178.317 Y28.495
X178.312
X177.461 Y28.372
X177.457 Y28.371
X176.59 Y28.249
X176.586 Y28.248
X175.702 Y28.125
X175.699
X174.8 Y28.002
X174.796
X173.88 Y27.879
X173.876 Y27.878
X172.944 Y27.756
X172.941 Y27.755
X171.993 Y27.633
X171.989 Y27.632
X171.024 Y27.509
X171.021
X170.041 Y27.386
X170.038
X169.041 Y27.263
X169.038
X168.025 Y27.14
X168.022
X166.995 Y27.017
X117.481 Y20.938
X103.099 Y17.084
G2 X102.688 Y17.03 I-0.411 J1.533
G1 X96.429
X68.786 Y-15.913
X75.382
G2 X76.969 Y-17.5 I0. J-1.587
G1 Y-20.5
G2 X75.382 Y-22.087 I-1.588 J0.
G1 X43.382
G2 X41.794 Y-20.5 I0. J1.587
G1 Y-17.5
G2 X41.819 Y-17.22 I1.588 J0.
G3 X41.563 Y-16.852 I-0.313 J0.056
G1 X41.25 Y-16.796
X41.181 Y-16.783 Z-2.992
X41.115 Y-16.772 Z-2.969
X41.055 Y-16.761 Z-2.931
X41.006 Y-16.752 Z-2.88
X40.969 Y-16.745 Z-2.82
X40.945 Y-16.741 Z-2.753
X40.938 Y-16.74 Z-2.683
X40.826 Y-17.365
Z-3.683 F300.
X40.834 Y-17.366 Z-3.753 F500.
X40.857 Y-17.371 Z-3.82
X40.894 Y-17.377 Z-3.88
X40.943 Y-17.386 Z-3.931
X41.003 Y-17.397 Z-3.969
X41.069 Y-17.409 Z-3.992
X41.138 Y-17.421 Z-4.
X41.451 Y-17.477
G3 X41.819 Y-17.22 I0.056 J0.313
G2 X43.382 Y-15.913 I1.563 J-0.28
G1 X48.794
Y20.913
X36.122
X14.752 Y-4.556
G2 X13.535 Y-5.123 I-1.216 J1.02
G1 X3.536
G2 X2.413 Y-4.658 I0. J1.588
G1 X-1.123 Y-1.123
G2 X-1.587 Y0. I1.123 J1.123
G1 Y20.
G2 X0. Y21.587 I1.587 J0.
G1 X2.957
Y25.
G2 X4.544 Y26.587 I1.588 J0.
G1 X17.957
Y26.668
X-0.276 Y29.883
G2 X-1.587 Y31.446 I0.276 J1.563
G1 Y41.446
G2 X-0.276 Y43.01 I1.587 J0.
G1 X17.957 Y46.224
Y46.305
X4.544
G2 X2.957 Y47.892 I0. J1.587
G1 Y51.305
X0.
G2 X-1.587 Y52.892 I0. J1.587
G1 Y72.892
G2 X-1.123 Y74.015 I1.587 J0.
G1 X2.413 Y77.55
G2 X3.536 Y78.015 I1.123 J-1.123
G1 X13.535
G2 X14.752 Y77.448 I0. J-1.588
G1 X36.122 Y51.98
X48.794
Y88.805
X43.382
G2 X41.794 Y90.392 I0. J1.588
G1 Y93.392
G2 X43.382 Y94.98 I1.588 J0.
G1 X75.382
G2 X76.969 Y93.392 I0. J-1.587
G1 Y90.392
G2 X75.382 Y88.805 I-1.588 J0.
G1 X68.786
X96.429 Y55.862
X102.688
G2 X103.099 Y55.808 I0. J-1.587
G1 X117.481 Y51.955
X166.995 Y45.875
X168.022 Y45.753
X168.025 Y45.752
X169.038 Y45.629
X169.041
X170.038 Y45.506
X170.041
X171.021 Y45.383
X171.024
X171.989 Y45.26
X171.993
X172.941 Y45.137
X172.944
X173.876 Y45.014
X173.88 Y45.013
X174.796 Y44.891
X174.8 Y44.89
X175.699 Y44.768
X175.702 Y44.767
X176.586 Y44.644
X176.59
X177.457 Y44.521
X177.462 Y44.52
X178.313 Y44.398
X178.317 Y44.397
X179.152 Y44.274
X179.156
X179.974 Y44.151
X179.979 Y44.15
X180.781 Y44.028
X180.786 Y44.027
X181.573 Y43.904
X181.578 Y43.903
X182.347 Y43.781
X182.352 Y43.78
X183.106 Y43.657
X183.111 Y43.656
X183.849 Y43.534
X183.855 Y43.533
X184.576 Y43.41
X184.582 Y43.409
X185.287 Y43.286
X185.293 Y43.285
X185.982 Y43.162
X185.989 Y43.161
X186.662 Y43.039
X186.669 Y43.037
X187.325 Y42.915
X187.332 Y42.913
X187.972 Y42.791
X187.979 Y42.789
X188.603 Y42.666
X188.611 Y42.665
X189.219 Y42.542
X189.227 Y42.54
X189.819 Y42.418
X189.828 Y42.416
X190.403 Y42.293
X190.412 Y42.291
X190.971 Y42.168
X190.981 Y42.166
X191.524 Y42.044
X191.534 Y42.041
X192.061 Y41.919
X192.072 Y41.916
X192.583 Y41.793
X192.595 Y41.79
X193.089 Y41.668
X193.101 Y41.665
X193.579 Y41.542
X193.591 Y41.539
X194.053 Y41.416
X194.067 Y41.412
X194.513 Y41.29
X194.529 Y41.285
X194.958 Y41.163
X194.972 Y41.158
X195.386 Y41.036
X195.404 Y41.03
X195.801 Y40.908
X195.819 Y40.902
X196.2 Y40.779
X196.22 Y40.773
X196.584 Y40.65
X196.604 Y40.643
X196.953 Y40.52
X196.976 Y40.512
X197.308 Y40.389
X197.333 Y40.38
X197.649 Y40.257
X197.675 Y40.247
X197.975 Y40.124
X198.003 Y40.112
X198.287 Y39.99
X198.321 Y39.975
X198.588 Y39.852
X198.62 Y39.837
X198.872 Y39.714
X198.912 Y39.694
X199.147 Y39.571
X199.191 Y39.547
X199.409 Y39.425
X199.451 Y39.4
X199.654 Y39.277
X199.707 Y39.244
X199.893 Y39.121
X199.945 Y39.086
X200.115 Y38.963
X200.179 Y38.915
X200.333 Y38.792
X200.403 Y38.733
X200.54 Y38.61
X200.607 Y38.547
X200.729 Y38.424
X200.809 Y38.337
X200.914 Y38.215
X200.993 Y38.115
X201.082 Y37.992
X201.161 Y37.871
X201.234 Y37.749
X201.274 Y37.678
X201.31 Y37.606
X201.367 Y37.483
X201.402 Y37.401
X201.433 Y37.317
X201.474 Y37.195
X201.503 Y37.096
X201.526 Y36.996
X201.55 Y36.874
X201.566 Y36.773
X201.576 Y36.672
X201.584 Y36.549
X201.588 Y36.446
X201.584 Y36.343
X201.576 Y36.22
X201.566 Y36.119
X201.55 Y36.019
X201.526 Y35.896
X201.503 Y35.796
X201.474 Y35.698
X201.433 Y35.575
X201.402 Y35.491
X201.367 Y35.409
X201.31 Y35.287
X201.274 Y35.214
X201.234 Y35.144
X201.161 Y35.021
X201.082 Y34.901
X200.993 Y34.778
X200.914 Y34.678
X200.809 Y34.555
X200.729 Y34.468
X200.607 Y34.345
X200.54 Y34.282
X200.403 Y34.159
X200.333 Y34.1
X200.179 Y33.978
X200.115 Y33.929
X199.945 Y33.807
X199.893 Y33.771
X199.707 Y33.649
X199.654 Y33.615
X199.451 Y33.492
X199.409 Y33.468
X199.191 Y33.345
X199.147 Y33.321
X198.912 Y33.198
X198.872 Y33.178
X198.62 Y33.056
X198.588 Y33.041
X198.321 Y32.918
X198.288 Y32.903
X198.004 Y32.78
X197.975 Y32.768
X197.675 Y32.646
X197.649 Y32.635
X197.333 Y32.512
X197.308 Y32.503
X196.976 Y32.38
X196.953 Y32.372
X196.604 Y32.249
X196.584 Y32.242
X196.22 Y32.12
X196.2 Y32.113
X195.819 Y31.99
X195.801 Y31.985
X195.404 Y31.862
X195.386 Y31.857
X194.972 Y31.734
X194.958 Y31.73
X194.529 Y31.607
X194.513 Y31.603
X194.067 Y31.48
X194.053 Y31.476
X193.591 Y31.354
X193.579 Y31.35
X193.101 Y31.228
X193.089 Y31.225
X192.595 Y31.102
X192.583 Y31.099
X192.072 Y30.976
X192.061 Y30.974
X191.534 Y30.851
X191.524 Y30.849
X190.981 Y30.726
X190.971 Y30.724
X190.412 Y30.601
X190.403 Y30.599
X189.828 Y30.476
X189.819 Y30.475
X189.227 Y30.352
X189.219 Y30.35
X188.611 Y30.227
X188.603 Y30.226
X187.979 Y30.103
X187.972 Y30.102
X187.332 Y29.979
X187.325 Y29.978
X186.669 Y29.855
X186.662 Y29.854
X185.989 Y29.731
X185.982 Y29.73
X185.293 Y29.607
X185.287 Y29.606
X184.582 Y29.483
X184.576 Y29.482
X183.855 Y29.36
X183.849 Y29.359
X183.111 Y29.236
X183.106 Y29.235
X182.352 Y29.112
X182.347
X181.578 Y28.989
X181.573 Y28.988
X180.786 Y28.865
X180.781
X179.979 Y28.742
X179.974 Y28.741
X179.156 Y28.619
X179.152 Y28.618
X178.317 Y28.495
X178.312
X177.461 Y28.372
X177.457 Y28.371
X176.59 Y28.249
X176.586 Y28.248
X175.702 Y28.125
X175.699
X174.8 Y28.002
X174.796
X173.88 Y27.879
X173.876 Y27.878
X172.944 Y27.756
X172.941 Y27.755
X171.993 Y27.633
X171.989 Y27.632
X171.024 Y27.509
X171.021
X170.041 Y27.386
X170.038
X169.041 Y27.263
X169.038
X168.025 Y27.14
X168.022
X166.995 Y27.017
X117.481 Y20.938
X103.099 Y17.084
G2 X102.688 Y17.03 I-0.411 J1.533
G1 X96.429
X68.786 Y-15.913
X75.382
G2 X76.969 Y-17.5 I0. J-1.587
G1 Y-20.5
G2 X75.382 Y-22.087 I-1.588 J0.
G1 X43.382
G2 X41.794 Y-20.5 I0. J1.587
G1 Y-17.5
G2 X41.819 Y-17.22 I1.588 J0.
G3 X41.563 Y-16.852 I-0.313 J0.056
G1 X41.25 Y-16.796
X41.181 Y-16.783 Z-3.992
X41.115 Y-16.772 Z-3.969
X41.055 Y-16.761 Z-3.931
X41.006 Y-16.752 Z-3.88
X40.969 Y-16.745 Z-3.82
X40.945 Y-16.741 Z-3.753
X40.938 Y-16.74 Z-3.683
X40.826 Y-17.365
Z-4.683 F300.
X40.834 Y-17.366 Z-4.753 F500.
X40.857 Y-17.371 Z-4.82
X40.894 Y-17.377 Z-4.88
X40.943 Y-17.386 Z-4.931
X41.003 Y-17.397 Z-4.969
X41.069 Y-17.409 Z-4.992
X41.138 Y-17.421 Z-5.
X41.451 Y-17.477
G3 X41.819 Y-17.22 I0.056 J0.313
G2 X43.382 Y-15.913 I1.563 J-0.28
G1 X48.794
Y20.913
X36.122
X14.752 Y-4.556
G2 X13.535 Y-5.123 I-1.216 J1.02
G1 X3.536
G2 X2.413 Y-4.658 I0. J1.588
G1 X-1.123 Y-1.123
G2 X-1.587 Y0. I1.123 J1.123
G1 Y20.
G2 X0. Y21.587 I1.587 J0.
G1 X2.957
Y25.
G2 X4.544 Y26.587 I1.588 J0.
G1 X17.957
Y26.668
X-0.276 Y29.883
G2 X-1.587 Y31.446 I0.276 J1.563
G1 Y41.446
G2 X-0.276 Y43.01 I1.587 J0.
G1 X17.957 Y46.224
Y46.305
X4.544
G2 X2.957 Y47.892 I0. J1.587
G1 Y51.305
X0.
G2 X-1.587 Y52.892 I0. J1.587
G1 Y72.892
G2 X-1.123 Y74.015 I1.587 J0.
G1 X2.413 Y77.55
G2 X3.536 Y78.015 I1.123 J-1.123
G1 X13.535
G2 X14.752 Y77.448 I0. J-1.588
G1 X36.122 Y51.98
X48.794
Y88.805
X43.382
G2 X41.794 Y90.392 I0. J1.588
G1 Y93.392
G2 X43.382 Y94.98 I1.588 J0.
G1 X75.382
G2 X76.969 Y93.392 I0. J-1.587
G1 Y90.392
G2 X75.382 Y88.805 I-1.588 J0.
G1 X68.786
X96.429 Y55.862
X102.688
G2 X103.099 Y55.808 I0. J-1.587
G1 X117.481 Y51.955
X166.995 Y45.875
X168.022 Y45.753
X168.025 Y45.752
X169.038 Y45.629
X169.041
X170.038 Y45.506
X170.041
X171.021 Y45.383
X171.024
X171.989 Y45.26
X171.993
X172.941 Y45.137
X172.944
X173.876 Y45.014
X173.88 Y45.013
X174.796 Y44.891
X174.8 Y44.89
X175.699 Y44.768
X175.702 Y44.767
X176.586 Y44.644
X176.59
X177.457 Y44.521
X177.462 Y44.52
X178.313 Y44.398
X178.317 Y44.397
X179.152 Y44.274
X179.156
X179.974 Y44.151
X179.979 Y44.15
X180.781 Y44.028
X180.786 Y44.027
X181.573 Y43.904
X181.578 Y43.903
X182.347 Y43.781
X182.352 Y43.78
X183.106 Y43.657
X183.111 Y43.656
X183.849 Y43.534
X183.855 Y43.533
X184.576 Y43.41
X184.582 Y43.409
X185.287 Y43.286
X185.293 Y43.285
X185.982 Y43.162
X185.989 Y43.161
X186.662 Y43.039
X186.669 Y43.037
X187.325 Y42.915
X187.332 Y42.913
X187.972 Y42.791
X187.979 Y42.789
X188.603 Y42.666
X188.611 Y42.665
X189.219 Y42.542
X189.227 Y42.54
X189.819 Y42.418
X189.828 Y42.416
X190.403 Y42.293
X190.412 Y42.291
X190.971 Y42.168
X190.981 Y42.166
X191.524 Y42.044
X191.534 Y42.041
X192.061 Y41.919
X192.072 Y41.916
X192.583 Y41.793
X192.595 Y41.79
X193.089 Y41.668
X193.101 Y41.665
X193.579 Y41.542
X193.591 Y41.539
X194.053 Y41.416
X194.067 Y41.412
X194.513 Y41.29
X194.529 Y41.285
X194.958 Y41.163
X194.972 Y41.158
X195.386 Y41.036
X195.404 Y41.03
X195.801 Y40.908
X195.819 Y40.902
X196.2 Y40.779
X196.22 Y40.773
X196.584 Y40.65
X196.604 Y40.643
X196.953 Y40.52
X196.976 Y40.512
X197.308 Y40.389
X197.333 Y40.38
X197.649 Y40.257
X197.675 Y40.247
X197.975 Y40.124
X198.003 Y40.112
X198.287 Y39.99
X198.321 Y39.975
X198.588 Y39.852
X198.62 Y39.837
X198.872 Y39.714
X198.912 Y39.694
X199.147 Y39.571
X199.191 Y39.547
X199.409 Y39.425
X199.451 Y39.4
X199.654 Y39.277
X199.707 Y39.244
X199.893 Y39.121
X199.945 Y39.086
X200.115 Y38.963
X200.179 Y38.915
X200.333 Y38.792
X200.403 Y38.733
X200.54 Y38.61
X200.607 Y38.547
X200.729 Y38.424
X200.809 Y38.337
X200.914 Y38.215
X200.993 Y38.115
X201.082 Y37.992
X201.161 Y37.871
X201.234 Y37.749
X201.274 Y37.678
X201.31 Y37.606
X201.367 Y37.483
X201.402 Y37.401
X201.433 Y37.317
X201.474 Y37.195
X201.503 Y37.096
X201.526 Y36.996
X201.55 Y36.874
X201.566 Y36.773
X201.576 Y36.672
X201.584 Y36.549
X201.588 Y36.446
X201.584 Y36.343
X201.576 Y36.22
X201.566 Y36.119
X201.55 Y36.019
X201.526 Y35.896
X201.503 Y35.796
X201.474 Y35.698
X201.433 Y35.575
X201.402 Y35.491
X201.367 Y35.409
X201.31 Y35.287
X201.274 Y35.214
X201.234 Y35.144
X201.161 Y35.021
X201.082 Y34.901
X200.993 Y34.778
X200.914 Y34.678
X200.809 Y34.555
X200.729 Y34.468
X200.607 Y34.345
X200.54 Y34.282
X200.403 Y34.159
X200.333 Y34.1
X200.179 Y33.978
X200.115 Y33.929
X199.945 Y33.807
X199.893 Y33.771
X199.707 Y33.649
X199.654 Y33.615
X199.451 Y33.492
X199.409 Y33.468
X199.191 Y33.345
X199.147 Y33.321
X198.912 Y33.198
X198.872 Y33.178
X198.62 Y33.056
X198.588 Y33.041
X198.321 Y32.918
X198.288 Y32.903
X198.004 Y32.78
X197.975 Y32.768
X197.675 Y32.646
X197.649 Y32.635
X197.333 Y32.512
X197.308 Y32.503
X196.976 Y32.38
X196.953 Y32.372
X196.604 Y32.249
X196.584 Y32.242
X196.22 Y32.12
X196.2 Y32.113
X195.819 Y31.99
X195.801 Y31.985
X195.404 Y31.862
X195.386 Y31.857
X194.972 Y31.734
X194.958 Y31.73
X194.529 Y31.607
X194.513 Y31.603
X194.067 Y31.48
X194.053 Y31.476
X193.591 Y31.354
X193.579 Y31.35
X193.101 Y31.228
X193.089 Y31.225
X192.595 Y31.102
X192.583 Y31.099
X192.072 Y30.976
X192.061 Y30.974
X191.534 Y30.851
X191.524 Y30.849
X190.981 Y30.726
X190.971 Y30.724
X190.412 Y30.601
X190.403 Y30.599
X189.828 Y30.476
X189.819 Y30.475
X189.227 Y30.352
X189.219 Y30.35
X188.611 Y30.227
X188.603 Y30.226
X187.979 Y30.103
X187.972 Y30.102
X187.332 Y29.979
X187.325 Y29.978
X186.669 Y29.855
X186.662 Y29.854
X185.989 Y29.731
X185.982 Y29.73
X185.293 Y29.607
X185.287 Y29.606
X184.582 Y29.483
X184.576 Y29.482
X183.855 Y29.36
X183.849 Y29.359
X183.111 Y29.236
X183.106 Y29.235
X182.352 Y29.112
X182.347
X181.578 Y28.989
X181.573 Y28.988
X180.786 Y28.865
X180.781
X179.979 Y28.742
X179.974 Y28.741
X179.156 Y28.619
X179.152 Y28.618
X178.317 Y28.495
X178.312
X177.461 Y28.372
X177.457 Y28.371
X176.59 Y28.249
X176.586 Y28.248
X175.702 Y28.125
X175.699
X174.8 Y28.002
X174.796
X173.88 Y27.879
X173.876 Y27.878
X172.944 Y27.756
X172.941 Y27.755
X171.993 Y27.633
X171.989 Y27.632
X171.024 Y27.509
X171.021
X170.041 Y27.386
X170.038
X169.041 Y27.263
X169.038
X168.025 Y27.14
X168.022
X166.995 Y27.017
X117.481 Y20.938
X103.099 Y17.084
G2 X102.688 Y17.03 I-0.411 J1.533
G1 X96.429
X68.786 Y-15.913
X75.382
G2 X76.969 Y-17.5 I0. J-1.587
G1 Y-20.5
G2 X75.382 Y-22.087 I-1.588 J0.
G1 X43.382
G2 X41.794 Y-20.5 I0. J1.587
G1 Y-17.5
G2 X41.819 Y-17.22 I1.588 J0.
G3 X41.563 Y-16.852 I-0.313 J0.056
G1 X41.25 Y-16.796
X41.181 Y-16.783 Z-4.992
X41.115 Y-16.772 Z-4.969
X41.055 Y-16.761 Z-4.931
X41.006 Y-16.752 Z-4.88
X40.969 Y-16.745 Z-4.82
X40.945 Y-16.741 Z-4.753
X40.938 Y-16.74 Z-4.683
X40.826 Y-17.365
Z-5.683 F300.
X40.834 Y-17.366 Z-5.753 F500.
X40.857 Y-17.371 Z-5.82
X40.894 Y-17.377 Z-5.88
X40.943 Y-17.386 Z-5.931
X41.003 Y-17.397 Z-5.969
X41.069 Y-17.409 Z-5.992
X41.138 Y-17.421 Z-6.
X41.451 Y-17.477
G3 X41.819 Y-17.22 I0.056 J0.313
G2 X43.382 Y-15.913 I1.563 J-0.28
G1 X48.794
Y20.913
X36.122
X14.752 Y-4.556
G2 X13.535 Y-5.123 I-1.216 J1.02
G1 X3.536
G2 X2.413 Y-4.658 I0. J1.588
G1 X-1.123 Y-1.123
G2 X-1.587 Y0. I1.123 J1.123
G1 Y20.
G2 X0. Y21.587 I1.587 J0.
G1 X2.957
Y25.
G2 X4.544 Y26.587 I1.588 J0.
G1 X17.957
Y26.668
X-0.276 Y29.883
G2 X-1.587 Y31.446 I0.276 J1.563
G1 Y41.446
G2 X-0.276 Y43.01 I1.587 J0.
G1 X17.957 Y46.224
Y46.305
X4.544
G2 X2.957 Y47.892 I0. J1.587
G1 Y51.305
X0.
G2 X-1.587 Y52.892 I0. J1.587
G1 Y72.892
G2 X-1.123 Y74.015 I1.587 J0.
G1 X2.413 Y77.55
G2 X3.536 Y78.015 I1.123 J-1.123
G1 X13.535
G2 X14.752 Y77.448 I0. J-1.588
G1 X36.122 Y51.98
X48.794
Y88.805
X43.382
G2 X41.794 Y90.392 I0. J1.588
G1 Y93.392
G2 X43.382 Y94.98 I1.588 J0.
G1 X75.382
G2 X76.969 Y93.392 I0. J-1.587
G1 Y90.392
G2 X75.382 Y88.805 I-1.588 J0.
G1 X68.786
X96.429 Y55.862
X102.688
G2 X103.099 Y55.808 I0. J-1.587
G1 X117.481 Y51.955
X166.995 Y45.875
X168.022 Y45.753
X168.025 Y45.752
X169.038 Y45.629
X169.041
X170.038 Y45.506
X170.041
X171.021 Y45.383
X171.024
X171.989 Y45.26
X171.993
X172.941 Y45.137
X172.944
X173.876 Y45.014
X173.88 Y45.013
X174.796 Y44.891
X174.8 Y44.89
X175.699 Y44.768
X175.702 Y44.767
X176.586 Y44.644
X176.59
X177.457 Y44.521
X177.462 Y44.52
X178.313 Y44.398
X178.317 Y44.397
X179.152 Y44.274
X179.156
X179.974 Y44.151
X179.979 Y44.15
X180.781 Y44.028
X180.786 Y44.027
X181.573 Y43.904
X181.578 Y43.903
X182.347 Y43.781
X182.352 Y43.78
X183.106 Y43.657
X183.111 Y43.656
X183.849 Y43.534
X183.855 Y43.533
X184.576 Y43.41
X184.582 Y43.409
X185.287 Y43.286
X185.293 Y43.285
X185.982 Y43.162
X185.989 Y43.161
X186.662 Y43.039
X186.669 Y43.037
X187.325 Y42.915
X187.332 Y42.913
X187.972 Y42.791
X187.979 Y42.789
X188.603 Y42.666
X188.611 Y42.665
X189.219 Y42.542
X189.227 Y42.54
X189.819 Y42.418
X189.828 Y42.416
X190.403 Y42.293
X190.412 Y42.291
X190.971 Y42.168
X190.981 Y42.166
X191.524 Y42.044
X191.534 Y42.041
X192.061 Y41.919
X192.072 Y41.916
X192.583 Y41.793
X192.595 Y41.79
X193.089 Y41.668
X193.101 Y41.665
X193.579 Y41.542
X193.591 Y41.539
X194.053 Y41.416
X194.067 Y41.412
X194.513 Y41.29
X194.529 Y41.285
X194.958 Y41.163
X194.972 Y41.158
X195.386 Y41.036
X195.404 Y41.03
X195.801 Y40.908
X195.819 Y40.902
X196.2 Y40.779
X196.22 Y40.773
X196.584 Y40.65
X196.604 Y40.643
X196.953 Y40.52
X196.976 Y40.512
X197.308 Y40.389
X197.333 Y40.38
X197.649 Y40.257
X197.675 Y40.247
X197.975 Y40.124
X198.003 Y40.112
X198.287 Y39.99
X198.321 Y39.975
X198.588 Y39.852
X198.62 Y39.837
X198.872 Y39.714
X198.912 Y39.694
X199.147 Y39.571
X199.191 Y39.547
X199.409 Y39.425
X199.451 Y39.4
X199.654 Y39.277
X199.707 Y39.244
X199.893 Y39.121
X199.945 Y39.086
X200.115 Y38.963
X200.179 Y38.915
X200.333 Y38.792
X200.403 Y38.733
X200.54 Y38.61
X200.607 Y38.547
X200.729 Y38.424
X200.809 Y38.337
X200.914 Y38.215
X200.993 Y38.115
X201.082 Y37.992
X201.161 Y37.871
X201.234 Y37.749
X201.274 Y37.678
X201.31 Y37.606
X201.367 Y37.483
X201.402 Y37.401
X201.433 Y37.317
X201.474 Y37.195
X201.503 Y37.096
X201.526 Y36.996
X201.55 Y36.874
X201.566 Y36.773
X201.576 Y36.672
X201.584 Y36.549
X201.588 Y36.446
X201.584 Y36.343
X201.576 Y36.22
X201.566 Y36.119
X201.55 Y36.019
X201.526 Y35.896
X201.503 Y35.796
X201.474 Y35.698
X201.433 Y35.575
X201.402 Y35.491
X201.367 Y35.409
X201.31 Y35.287
X201.274 Y35.214
X201.234 Y35.144
X201.161 Y35.021
X201.082 Y34.901
X200.993 Y34.778
X200.914 Y34.678
X200.809 Y34.555
X200.729 Y34.468
X200.607 Y34.345
X200.54 Y34.282
X200.403 Y34.159
X200.333 Y34.1
X200.179 Y33.978
X200.115 Y33.929
X199.945 Y33.807
X199.893 Y33.771
X199.707 Y33.649
X199.654 Y33.615
X199.451 Y33.492
X199.409 Y33.468
X199.191 Y33.345
X199.147 Y33.321
X198.912 Y33.198
X198.872 Y33.178
X198.62 Y33.056
X198.588 Y33.041
X198.321 Y32.918
X198.288 Y32.903
X198.004 Y32.78
X197.975 Y32.768
X197.675 Y32.646
X197.649 Y32.635
X197.333 Y32.512
X197.308 Y32.503
X196.976 Y32.38
X196.953 Y32.372
X196.604 Y32.249
X196.584 Y32.242
X196.22 Y32.12
X196.2 Y32.113
X195.819 Y31.99
X195.801 Y31.985
X195.404 Y31.862
X195.386 Y31.857
X194.972 Y31.734
X194.958 Y31.73
X194.529 Y31.607
X194.513 Y31.603
X194.067 Y31.48
X194.053 Y31.476
X193.591 Y31.354
X193.579 Y31.35
X193.101 Y31.228
X193.089 Y31.225
X192.595 Y31.102
X192.583 Y31.099
X192.072 Y30.976
X192.061 Y30.974
X191.534 Y30.851
X191.524 Y30.849
X190.981 Y30.726
X190.971 Y30.724
X190.412 Y30.601
X190.403 Y30.599
X189.828 Y30.476
X189.819 Y30.475
X189.227 Y30.352
X189.219 Y30.35
X188.611 Y30.227
X188.603 Y30.226
X187.979 Y30.103
X187.972 Y30.102
X187.332 Y29.979
X187.325 Y29.978
X186.669 Y29.855
X186.662 Y29.854
X185.989 Y29.731
X185.982 Y29.73
X185.293 Y29.607
X185.287 Y29.606
X184.582 Y29.483
X184.576 Y29.482
X183.855 Y29.36
X183.849 Y29.359
X183.111 Y29.236
X183.106 Y29.235
X182.352 Y29.112
X182.347
X181.578 Y28.989
X181.573 Y28.988
X180.786 Y28.865
X180.781
X179.979 Y28.742
X179.974 Y28.741
X179.156 Y28.619
X179.152 Y28.618
X178.317 Y28.495
X178.312
X177.461 Y28.372
X177.457 Y28.371
X176.59 Y28.249
X176.586 Y28.248
X175.702 Y28.125
X175.699
X174.8 Y28.002
X174.796
X173.88 Y27.879
X173.876 Y27.878
X172.944 Y27.756
X172.941 Y27.755
X171.993 Y27.633
X171.989 Y27.632
X171.024 Y27.509
X171.021
X170.041 Y27.386
X170.038
X169.041 Y27.263
X169.038
X168.025 Y27.14
X168.022
X166.995 Y27.017
X117.481 Y20.938
X103.099 Y17.084
G2 X102.688 Y17.03 I-0.411 J1.533
G1 X96.429
X68.786 Y-15.913
X75.382
G2 X76.969 Y-17.5 I0. J-1.587
G1 Y-20.5
G2 X75.382 Y-22.087 I-1.588 J0.
G1 X43.382
G2 X41.794 Y-20.5 I0. J1.587
G1 Y-17.5
G2 X41.819 Y-17.22 I1.588 J0.
G3 X41.563 Y-16.852 I-0.313 J0.056
G1 X41.25 Y-16.796
X41.181 Y-16.783 Z-5.992
X41.115 Y-16.772 Z-5.969
X41.055 Y-16.761 Z-5.931
X41.006 Y-16.752 Z-5.88
X40.969 Y-16.745 Z-5.82
X40.945 Y-16.741 Z-5.753
X40.938 Y-16.74 Z-5.683
X40.826 Y-17.365
Z-6.683 F300.
X40.834 Y-17.366 Z-6.753 F500.
X40.857 Y-17.371 Z-6.82
X40.894 Y-17.377 Z-6.88
X40.943 Y-17.386 Z-6.931
X41.003 Y-17.397 Z-6.969
X41.069 Y-17.409 Z-6.992
X41.138 Y-17.421 Z-7.
X41.451 Y-17.477
G3 X41.819 Y-17.22 I0.056 J0.313
G2 X43.382 Y-15.913 I1.563 J-0.28
G1 X48.794
Y20.913
X36.122
X14.752 Y-4.556
G2 X13.535 Y-5.123 I-1.216 J1.02
G1 X3.536
G2 X2.413 Y-4.658 I0. J1.588
G1 X-1.123 Y-1.123
G2 X-1.587 Y0. I1.123 J1.123
G1 Y20.
G2 X0. Y21.587 I1.587 J0.
G1 X2.957
Y25.
G2 X4.544 Y26.587 I1.588 J0.
G1 X17.957
Y26.668
X-0.276 Y29.883
G2 X-1.587 Y31.446 I0.276 J1.563
G1 Y41.446
G2 X-0.276 Y43.01 I1.587 J0.
G1 X17.957 Y46.224
Y46.305
X4.544
G2 X2.957 Y47.892 I0. J1.587
G1 Y51.305
X0.
G2 X-1.587 Y52.892 I0. J1.587
G1 Y72.892
G2 X-1.123 Y74.015 I1.587 J0.
G1 X2.413 Y77.55
G2 X3.536 Y78.015 I1.123 J-1.123
G1 X13.535
G2 X14.752 Y77.448 I0. J-1.588
G1 X36.122 Y51.98
X48.794
Y88.805
X43.382
G2 X41.794 Y90.392 I0. J1.588
G1 Y93.392
G2 X43.382 Y94.98 I1.588 J0.
G1 X75.382
G2 X76.969 Y93.392 I0. J-1.587
G1 Y90.392
G2 X75.382 Y88.805 I-1.588 J0.
G1 X68.786
X96.429 Y55.862
X102.688
G2 X103.099 Y55.808 I0. J-1.587
G1 X117.481 Y51.955
X166.995 Y45.875
X168.022 Y45.753
X168.025 Y45.752
X169.038 Y45.629
X169.041
X170.038 Y45.506
X170.041
X171.021 Y45.383
X171.024
X171.989 Y45.26
X171.993
X172.941 Y45.137
X172.944
X173.876 Y45.014
X173.88 Y45.013
X174.796 Y44.891
X174.8 Y44.89
X175.699 Y44.768
X175.702 Y44.767
X176.586 Y44.644
X176.59
X177.457 Y44.521
X177.462 Y44.52
X178.313 Y44.398
X178.317 Y44.397
X179.152 Y44.274
X179.156
X179.974 Y44.151
X179.979 Y44.15
X180.781 Y44.028
X180.786 Y44.027
X181.573 Y43.904
X181.578 Y43.903
X182.347 Y43.781
X182.352 Y43.78
X183.106 Y43.657
X183.111 Y43.656
X183.849 Y43.534
X183.855 Y43.533
X184.576 Y43.41
X184.582 Y43.409
X185.287 Y43.286
X185.293 Y43.285
X185.982 Y43.162
X185.989 Y43.161
X186.662 Y43.039
X186.669 Y43.037
X187.325 Y42.915
X187.332 Y42.913
X187.972 Y42.791
X187.979 Y42.789
X188.603 Y42.666
X188.611 Y42.665
X189.219 Y42.542
X189.227 Y42.54
X189.819 Y42.418
X189.828 Y42.416
X190.403 Y42.293
X190.412 Y42.291
X190.971 Y42.168
X190.981 Y42.166
X191.524 Y42.044
X191.534 Y42.041
X192.061 Y41.919
X192.072 Y41.916
X192.583 Y41.793
X192.595 Y41.79
X193.089 Y41.668
X193.101 Y41.665
X193.579 Y41.542
X193.591 Y41.539
X194.053 Y41.416
X194.067 Y41.412
X194.513 Y41.29
X194.529 Y41.285
X194.958 Y41.163
X194.972 Y41.158
X195.386 Y41.036
X195.404 Y41.03
X195.801 Y40.908
X195.819 Y40.902
X196.2 Y40.779
X196.22 Y40.773
X196.584 Y40.65
X196.604 Y40.643
X196.953 Y40.52
X196.976 Y40.512
X197.308 Y40.389
X197.333 Y40.38
X197.649 Y40.257
X197.675 Y40.247
X197.975 Y40.124
X198.003 Y40.112
X198.287 Y39.99
X198.321 Y39.975
X198.588 Y39.852
X198.62 Y39.837
X198.872 Y39.714
X198.912 Y39.694
X199.147 Y39.571
X199.191 Y39.547
X199.409 Y39.425
X199.451 Y39.4
X199.654 Y39.277
X199.707 Y39.244
X199.893 Y39.121
X199.945 Y39.086
X200.115 Y38.963
X200.179 Y38.915
X200.333 Y38.792
X200.403 Y38.733
X200.54 Y38.61
X200.607 Y38.547
X200.729 Y38.424
X200.809 Y38.337
X200.914 Y38.215
X200.993 Y38.115
X201.082 Y37.992
X201.161 Y37.871
X201.234 Y37.749
X201.274 Y37.678
X201.31 Y37.606
X201.367 Y37.483
X201.402 Y37.401
X201.433 Y37.317
X201.474 Y37.195
X201.503 Y37.096
X201.526 Y36.996
X201.55 Y36.874
X201.566 Y36.773
X201.576 Y36.672
X201.584 Y36.549
X201.588 Y36.446
X201.584 Y36.343
X201.576 Y36.22
X201.566 Y36.119
X201.55 Y36.019
X201.526 Y35.896
X201.503 Y35.796
X201.474 Y35.698
X201.433 Y35.575
X201.402 Y35.491
X201.367 Y35.409
X201.31 Y35.287
X201.274 Y35.214
X201.234 Y35.144
X201.161 Y35.021
X201.082 Y34.901
X200.993 Y34.778
X200.914 Y34.678
X200.809 Y34.555
X200.729 Y34.468
X200.607 Y34.345
X200.54 Y34.282
X200.403 Y34.159
X200.333 Y34.1
X200.179 Y33.978
X200.115 Y33.929
X199.945 Y33.807
X199.893 Y33.771
X199.707 Y33.649
X199.654 Y33.615
X199.451 Y33.492
X199.409 Y33.468
X199.191 Y33.345
X199.147 Y33.321
X198.912 Y33.198
X198.872 Y33.178
X198.62 Y33.056
X198.588 Y33.041
X198.321 Y32.918
X198.288 Y32.903
X198.004 Y32.78
X197.975 Y32.768
X197.675 Y32.646
X197.649 Y32.635
X197.333 Y32.512
X197.308 Y32.503
X196.976 Y32.38
X196.953 Y32.372
X196.604 Y32.249
X196.584 Y32.242
X196.22 Y32.12
X196.2 Y32.113
X195.819 Y31.99
X195.801 Y31.985
X195.404 Y31.862
X195.386 Y31.857
X194.972 Y31.734
X194.958 Y31.73
X194.529 Y31.607
X194.513 Y31.603
X194.067 Y31.48
X194.053 Y31.476
X193.591 Y31.354
X193.579 Y31.35
X193.101 Y31.228
X193.089 Y31.225
X192.595 Y31.102
X192.583 Y31.099
X192.072 Y30.976
X192.061 Y30.974
X191.534 Y30.851
X191.524 Y30.849
X190.981 Y30.726
X190.971 Y30.724
X190.412 Y30.601
X190.403 Y30.599
X189.828 Y30.476
X189.819 Y30.475
X189.227 Y30.352
X189.219 Y30.35
X188.611 Y30.227
X188.603 Y30.226
X187.979 Y30.103
X187.972 Y30.102
X187.332 Y29.979
X187.325 Y29.978
X186.669 Y29.855
X186.662 Y29.854
X185.989 Y29.731
X185.982 Y29.73
X185.293 Y29.607
X185.287 Y29.606
X184.582 Y29.483
X184.576 Y29.482
X183.855 Y29.36
X183.849 Y29.359
X183.111 Y29.236
X183.106 Y29.235
X182.352 Y29.112
X182.347
X181.578 Y28.989
X181.573 Y28.988
X180.786 Y28.865
X180.781
X179.979 Y28.742
X179.974 Y28.741
X179.156 Y28.619
X179.152 Y28.618
X178.317 Y28.495
X178.312
X177.461 Y28.372
X177.457 Y28.371
X176.59 Y28.249
X176.586 Y28.248
X175.702 Y28.125
X175.699
X174.8 Y28.002
X174.796
X173.88 Y27.879
X173.876 Y27.878
X172.944 Y27.756
X172.941 Y27.755
X171.993 Y27.633
X171.989 Y27.632
X171.024 Y27.509
X171.021
X170.041 Y27.386
X170.038
X169.041 Y27.263
X169.038
X168.025 Y27.14
X168.022
X166.995 Y27.017
X117.481 Y20.938
X103.099 Y17.084
G2 X102.688 Y17.03 I-0.411 J1.533
G1 X96.429
X68.786 Y-15.913
X75.382
G2 X76.969 Y-17.5 I0. J-1.587
G1 Y-20.5
G2 X75.382 Y-22.087 I-1.588 J0.
G1 X43.382
G2 X41.794 Y-20.5 I0. J1.587
G1 Y-17.5
G2 X41.819 Y-17.22 I1.588 J0.
G3 X41.563 Y-16.852 I-0.313 J0.056
G1 X41.25 Y-16.796
X41.181 Y-16.783 Z-6.992
X41.115 Y-16.772 Z-6.969
X41.055 Y-16.761 Z-6.931
X41.006 Y-16.752 Z-6.88
X40.969 Y-16.745 Z-6.82
X40.945 Y-16.741 Z-6.753
X40.938 Y-16.74 Z-6.683
X40.826 Y-17.365
Z-7.683 F300.
X40.834 Y-17.366 Z-7.753 F500.
X40.857 Y-17.371 Z-7.82
X40.894 Y-17.377 Z-7.88
X40.943 Y-17.386 Z-7.931
X41.003 Y-17.397 Z-7.969
X41.069 Y-17.409 Z-7.992
X41.138 Y-17.421 Z-8.
X41.451 Y-17.477
G3 X41.819 Y-17.22 I0.056 J0.313
G2 X43.382 Y-15.913 I1.563 J-0.28
G1 X48.794
Y20.913
X36.122
X14.752 Y-4.556
G2 X13.535 Y-5.123 I-1.216 J1.02
G1 X3.536
G2 X2.413 Y-4.658 I0. J1.588
G1 X-1.123 Y-1.123
G2 X-1.587 Y0. I1.123 J1.123
G1 Y20.
G2 X0. Y21.587 I1.587 J0.
G1 X2.957
Y25.
G2 X4.544 Y26.587 I1.588 J0.
G1 X17.957
Y26.668
X-0.276 Y29.883
G2 X-1.587 Y31.446 I0.276 J1.563
G1 Y41.446
G2 X-0.276 Y43.01 I1.587 J0.
G1 X17.957 Y46.224
Y46.305
X4.544
G2 X2.957 Y47.892 I0. J1.587
G1 Y51.305
X0.
G2 X-1.587 Y52.892 I0. J1.587
G1 Y72.892
G2 X-1.123 Y74.015 I1.587 J0.
G1 X2.413 Y77.55
G2 X3.536 Y78.015 I1.123 J-1.123
G1 X13.535
G2 X14.752 Y77.448 I0. J-1.588
G1 X36.122 Y51.98
X48.794
Y88.805
X43.382
G2 X41.794 Y90.392 I0. J1.588
G1 Y93.392
G2 X43.382 Y94.98 I1.588 J0.
G1 X75.382
G2 X76.969 Y93.392 I0. J-1.587
G1 Y90.392
G2 X75.382 Y88.805 I-1.588 J0.
G1 X68.786
X96.429 Y55.862
X102.688
G2 X103.099 Y55.808 I0. J-1.587
G1 X117.481 Y51.955
X166.995 Y45.875
X168.022 Y45.753
X168.025 Y45.752
X169.038 Y45.629
X169.041
X170.038 Y45.506
X170.041
X171.021 Y45.383
X171.024
X171.989 Y45.26
X171.993
X172.941 Y45.137
X172.944
X173.876 Y45.014
X173.88 Y45.013
X174.796 Y44.891
X174.8 Y44.89
X175.699 Y44.768
X175.702 Y44.767
X176.586 Y44.644
X176.59
X177.457 Y44.521
X177.462 Y44.52
X178.313 Y44.398
X178.317 Y44.397
X179.152 Y44.274
X179.156
X179.974 Y44.151
X179.979 Y44.15
X180.781 Y44.028
X180.786 Y44.027
X181.573 Y43.904
X181.578 Y43.903
X182.347 Y43.781
X182.352 Y43.78
X183.106 Y43.657
X183.111 Y43.656
X183.849 Y43.534
X183.855 Y43.533
X184.576 Y43.41
X184.582 Y43.409
X185.287 Y43.286
X185.293 Y43.285
X185.982 Y43.162
X185.989 Y43.161
X186.662 Y43.039
X186.669 Y43.037
X187.325 Y42.915
X187.332 Y42.913
X187.972 Y42.791
X187.979 Y42.789
X188.603 Y42.666
X188.611 Y42.665
X189.219 Y42.542
X189.227 Y42.54
X189.819 Y42.418
X189.828 Y42.416
X190.403 Y42.293
X190.412 Y42.291
X190.971 Y42.168
X190.981 Y42.166
X191.524 Y42.044
X191.534 Y42.041
X192.061 Y41.919
X192.072 Y41.916
X192.583 Y41.793
X192.595 Y41.79
X193.089 Y41.668
X193.101 Y41.665
X193.579 Y41.542
X193.591 Y41.539
X194.053 Y41.416
X194.067 Y41.412
X194.513 Y41.29
X194.529 Y41.285
X194.958 Y41.163
X194.972 Y41.158
X195.386 Y41.036
X195.404 Y41.03
X195.801 Y40.908
X195.819 Y40.902
X196.2 Y40.779
X196.22 Y40.773
X196.584 Y40.65
X196.604 Y40.643
X196.953 Y40.52
X196.976 Y40.512
X197.308 Y40.389
X197.333 Y40.38
X197.649 Y40.257
X197.675 Y40.247
X197.975 Y40.124
X198.003 Y40.112
X198.287 Y39.99
X198.321 Y39.975
X198.588 Y39.852
X198.62 Y39.837
X198.872 Y39.714
X198.912 Y39.694
X199.147 Y39.571
X199.191 Y39.547
X199.409 Y39.425
X199.451 Y39.4
X199.654 Y39.277
X199.707 Y39.244
X199.893 Y39.121
X199.945 Y39.086
X200.115 Y38.963
X200.179 Y38.915
X200.333 Y38.792
X200.403 Y38.733
X200.54 Y38.61
X200.607 Y38.547
X200.729 Y38.424
X200.809 Y38.337
X200.914 Y38.215
X200.993 Y38.115
X201.082 Y37.992
X201.161 Y37.871
X201.234 Y37.749
X201.274 Y37.678
X201.31 Y37.606
X201.367 Y37.483
X201.402 Y37.401
X201.433 Y37.317
X201.474 Y37.195
X201.503 Y37.096
X201.526 Y36.996
X201.55 Y36.874
X201.566 Y36.773
X201.576 Y36.672
X201.584 Y36.549
X201.588 Y36.446
X201.584 Y36.343
X201.576 Y36.22
X201.566 Y36.119
X201.55 Y36.019
X201.526 Y35.896
X201.503 Y35.796
X201.474 Y35.698
X201.433 Y35.575
X201.402 Y35.491
X201.367 Y35.409
X201.31 Y35.287
X201.274 Y35.214
X201.234 Y35.144
X201.161 Y35.021
X201.082 Y34.901
X200.993 Y34.778
X200.914 Y34.678
X200.809 Y34.555
X200.729 Y34.468
X200.607 Y34.345
X200.54 Y34.282
X200.403 Y34.159
X200.333 Y34.1
X200.179 Y33.978
X200.115 Y33.929
X199.945 Y33.807
X199.893 Y33.771
X199.707 Y33.649
X199.654 Y33.615
X199.451 Y33.492
X199.409 Y33.468
X199.191 Y33.345
X199.147 Y33.321
X198.912 Y33.198
X198.872 Y33.178
X198.62 Y33.056
X198.588 Y33.041
X198.321 Y32.918
X198.288 Y32.903
X198.004 Y32.78
X197.975 Y32.768
X197.675 Y32.646
X197.649 Y32.635
X197.333 Y32.512
X197.308 Y32.503
X196.976 Y32.38
X196.953 Y32.372
X196.604 Y32.249
X196.584 Y32.242
X196.22 Y32.12
X196.2 Y32.113
X195.819 Y31.99
X195.801 Y31.985
X195.404 Y31.862
X195.386 Y31.857
X194.972 Y31.734
X194.958 Y31.73
X194.529 Y31.607
X194.513 Y31.603
X194.067 Y31.48
X194.053 Y31.476
X193.591 Y31.354
X193.579 Y31.35
X193.101 Y31.228
X193.089 Y31.225
X192.595 Y31.102
X192.583 Y31.099
X192.072 Y30.976
X192.061 Y30.974
X191.534 Y30.851
X191.524 Y30.849
X190.981 Y30.726
X190.971 Y30.724
X190.412 Y30.601
X190.403 Y30.599
X189.828 Y30.476
X189.819 Y30.475
X189.227 Y30.352
X189.219 Y30.35
X188.611 Y30.227
X188.603 Y30.226
X187.979 Y30.103
X187.972 Y30.102
X187.332 Y29.979
X187.325 Y29.978
X186.669 Y29.855
X186.662 Y29.854
X185.989 Y29.731
X185.982 Y29.73
X185.293 Y29.607
X185.287 Y29.606
X184.582 Y29.483
X184.576 Y29.482
X183.855 Y29.36
X183.849 Y29.359
X183.111 Y29.236
X183.106 Y29.235
X182.352 Y29.112
X182.347
X181.578 Y28.989
X181.573 Y28.988
X180.786 Y28.865
X180.781
X179.979 Y28.742
X179.974 Y28.741
X179.156 Y28.619
X179.152 Y28.618
X178.317 Y28.495
X178.312
X177.461 Y28.372
X177.457 Y28.371
X176.59 Y28.249
X176.586 Y28.248
X175.702 Y28.125
X175.699
X174.8 Y28.002
X174.796
X173.88 Y27.879
X173.876 Y27.878
X172.944 Y27.756
X172.941 Y27.755
X171.993 Y27.633
X171.989 Y27.632
X171.024 Y27.509
X171.021
X170.041 Y27.386
X170.038
X169.041 Y27.263
X169.038
X168.025 Y27.14
X168.022
X166.995 Y27.017
X117.481 Y20.938
X103.099 Y17.084
G2 X102.688 Y17.03 I-0.411 J1.533
G1 X96.429
X68.786 Y-15.913
X75.382
G2 X76.969 Y-17.5 I0. J-1.587
G1 Y-20.5
G2 X75.382 Y-22.087 I-1.588 J0.
G1 X43.382
G2 X41.794 Y-20.5 I0. J1.587
G1 Y-17.5
G2 X41.819 Y-17.22 I1.588 J0.
G3 X41.563 Y-16.852 I-0.313 J0.056
G1 X41.25 Y-16.796
X41.181 Y-16.783 Z-7.992
X41.115 Y-16.772 Z-7.969
X41.055 Y-16.761 Z-7.931
X41.006 Y-16.752 Z-7.88
X40.969 Y-16.745 Z-7.82
X40.945 Y-16.741 Z-7.753
X40.938 Y-16.74 Z-7.683
X40.826 Y-17.365
Z-8.683 F300.
X40.834 Y-17.366 Z-8.753 F500.
X40.857 Y-17.371 Z-8.82
X40.894 Y-17.377 Z-8.88
X40.943 Y-17.386 Z-8.931
X41.003 Y-17.397 Z-8.969
X41.069 Y-17.409 Z-8.992
X41.138 Y-17.421 Z-9.
X41.451 Y-17.477
G3 X41.819 Y-17.22 I0.056 J0.313
G2 X43.382 Y-15.913 I1.563 J-0.28
G1 X48.794
Y20.913
X36.122
X14.752 Y-4.556
G2 X13.535 Y-5.123 I-1.216 J1.02
G1 X3.536
G2 X2.413 Y-4.658 I0. J1.588
G1 X-1.123 Y-1.123
G2 X-1.587 Y0. I1.123 J1.123
G1 Y20.
G2 X0. Y21.587 I1.587 J0.
G1 X2.957
Y25.
G2 X4.544 Y26.587 I1.588 J0.
G1 X17.957
Y26.668
X-0.276 Y29.883
G2 X-1.587 Y31.446 I0.276 J1.563
G1 Y41.446
G2 X-0.276 Y43.01 I1.587 J0.
G1 X17.957 Y46.224
Y46.305
X4.544
G2 X2.957 Y47.892 I0. J1.587
G1 Y51.305
X0.
G2 X-1.587 Y52.892 I0. J1.587
G1 Y72.892
G2 X-1.123 Y74.015 I1.587 J0.
G1 X2.413 Y77.55
G2 X3.536 Y78.015 I1.123 J-1.123
G1 X13.535
G2 X14.752 Y77.448 I0. J-1.588
G1 X36.122 Y51.98
X48.794
Y88.805
X43.382
G2 X41.794 Y90.392 I0. J1.588
G1 Y93.392
G2 X43.382 Y94.98 I1.588 J0.
G1 X75.382
G2 X76.969 Y93.392 I0. J-1.587
G1 Y90.392
G2 X75.382 Y88.805 I-1.588 J0.
G1 X68.786
X96.429 Y55.862
X102.688
G2 X103.099 Y55.808 I0. J-1.587
G1 X117.481 Y51.955
X166.995 Y45.875
X168.022 Y45.753
X168.025 Y45.752
X169.038 Y45.629
X169.041
X170.038 Y45.506
X170.041
X171.021 Y45.383
X171.024
X171.989 Y45.26
X171.993
X172.941 Y45.137
X172.944
X173.876 Y45.014
X173.88 Y45.013
X174.796 Y44.891
X174.8 Y44.89
X175.699 Y44.768
X175.702 Y44.767
X176.586 Y44.644
X176.59
X177.457 Y44.521
X177.462 Y44.52
X178.313 Y44.398
X178.317 Y44.397
X179.152 Y44.274
X179.156
X179.974 Y44.151
X179.979 Y44.15
X180.781 Y44.028
X180.786 Y44.027
X181.573 Y43.904
X181.578 Y43.903
X182.347 Y43.781
X182.352 Y43.78
X183.106 Y43.657
X183.111 Y43.656
X183.849 Y43.534
X183.855 Y43.533
X184.576 Y43.41
X184.582 Y43.409
X185.287 Y43.286
X185.293 Y43.285
X185.982 Y43.162
X185.989 Y43.161
X186.662 Y43.039
X186.669 Y43.037
X187.325 Y42.915
X187.332 Y42.913
X187.972 Y42.791
X187.979 Y42.789
X188.603 Y42.666
X188.611 Y42.665
X189.219 Y42.542
X189.227 Y42.54
X189.819 Y42.418
X189.828 Y42.416
X190.403 Y42.293
X190.412 Y42.291
X190.971 Y42.168
X190.981 Y42.166
X191.524 Y42.044
X191.534 Y42.041
X192.061 Y41.919
X192.072 Y41.916
X192.583 Y41.793
X192.595 Y41.79
X193.089 Y41.668
X193.101 Y41.665
X193.579 Y41.542
X193.591 Y41.539
X194.053 Y41.416
X194.067 Y41.412
X194.513 Y41.29
X194.529 Y41.285
X194.958 Y41.163
X194.972 Y41.158
X195.386 Y41.036
X195.404 Y41.03
X195.801 Y40.908
X195.819 Y40.902
X196.2 Y40.779
X196.22 Y40.773
X196.584 Y40.65
X196.604 Y40.643
X196.953 Y40.52
X196.976 Y40.512
X197.308 Y40.389
X197.333 Y40.38
X197.649 Y40.257
X197.675 Y40.247
X197.975 Y40.124
X198.003 Y40.112
X198.287 Y39.99
X198.321 Y39.975
X198.588 Y39.852
X198.62 Y39.837
X198.872 Y39.714
X198.912 Y39.694
X199.147 Y39.571
X199.191 Y39.547
X199.409 Y39.425
X199.451 Y39.4
X199.654 Y39.277
X199.707 Y39.244
X199.893 Y39.121
X199.945 Y39.086
X200.115 Y38.963
X200.179 Y38.915
X200.333 Y38.792
X200.403 Y38.733
X200.54 Y38.61
X200.607 Y38.547
X200.729 Y38.424
X200.809 Y38.337
X200.914 Y38.215
X200.993 Y38.115
X201.082 Y37.992
X201.161 Y37.871
X201.234 Y37.749
X201.274 Y37.678
X201.31 Y37.606
X201.367 Y37.483
X201.402 Y37.401
X201.433 Y37.317
X201.474 Y37.195
X201.503 Y37.096
X201.526 Y36.996
X201.55 Y36.874
X201.566 Y36.773
X201.576 Y36.672
X201.584 Y36.549
X201.588 Y36.446
X201.584 Y36.343
X201.576 Y36.22
X201.566 Y36.119
X201.55 Y36.019
X201.526 Y35.896
X201.503 Y35.796
X201.474 Y35.698
X201.433 Y35.575
X201.402 Y35.491
X201.367 Y35.409
X201.31 Y35.287
X201.274 Y35.214
X201.234 Y35.144
X201.161 Y35.021
X201.082 Y34.901
X200.993 Y34.778
X200.914 Y34.678
X200.809 Y34.555
X200.729 Y34.468
X200.607 Y34.345
X200.54 Y34.282
X200.403 Y34.159
X200.333 Y34.1
X200.179 Y33.978
X200.115 Y33.929
X199.945 Y33.807
X199.893 Y33.771
X199.707 Y33.649
X199.654 Y33.615
X199.451 Y33.492
X199.409 Y33.468
X199.191 Y33.345
X199.147 Y33.321
X198.912 Y33.198
X198.872 Y33.178
X198.62 Y33.056
X198.588 Y33.041
X198.321 Y32.918
X198.288 Y32.903
X198.004 Y32.78
X197.975 Y32.768
X197.675 Y32.646
X197.649 Y32.635
X197.333 Y32.512
X197.308 Y32.503
X196.976 Y32.38
X196.953 Y32.372
X196.604 Y32.249
X196.584 Y32.242
X196.22 Y32.12
X196.2 Y32.113
X195.819 Y31.99
X195.801 Y31.985
X195.404 Y31.862
X195.386 Y31.857
X194.972 Y31.734
X194.958 Y31.73
X194.529 Y31.607
X194.513 Y31.603
X194.067 Y31.48
X194.053 Y31.476
X193.591 Y31.354
X193.579 Y31.35
X193.101 Y31.228
X193.089 Y31.225
X192.595 Y31.102
X192.583 Y31.099
X192.072 Y30.976
X192.061 Y30.974
X191.534 Y30.851
X191.524 Y30.849
X190.981 Y30.726
X190.971 Y30.724
X190.412 Y30.601
X190.403 Y30.599
X189.828 Y30.476
X189.819 Y30.475
X189.227 Y30.352
X189.219 Y30.35
X188.611 Y30.227
X188.603 Y30.226
X187.979 Y30.103
X187.972 Y30.102
X187.332 Y29.979
X187.325 Y29.978
X186.669 Y29.855
X186.662 Y29.854
X185.989 Y29.731
X185.982 Y29.73
X185.293 Y29.607
X185.287 Y29.606
X184.582 Y29.483
X184.576 Y29.482
X183.855 Y29.36
X183.849 Y29.359
X183.111 Y29.236
X183.106 Y29.235
X182.352 Y29.112
X182.347
X181.578 Y28.989
X181.573 Y28.988
X180.786 Y28.865
X180.781
X179.979 Y28.742
X179.974 Y28.741
X179.156 Y28.619
X179.152 Y28.618
X178.317 Y28.495
X178.312
X177.461 Y28.372
X177.457 Y28.371
X176.59 Y28.249
X176.586 Y28.248
X175.702 Y28.125
X175.699
X174.8 Y28.002
X174.796
X173.88 Y27.879
X173.876 Y27.878
X172.944 Y27.756
X172.941 Y27.755
X171.993 Y27.633
X171.989 Y27.632
X171.024 Y27.509
X171.021
X170.041 Y27.386
X170.038
X169.041 Y27.263
X169.038
X168.025 Y27.14
X168.022
X166.995 Y27.017
X117.481 Y20.938
X103.099 Y17.084
G2 X102.688 Y17.03 I-0.411 J1.533
G1 X96.429
X68.786 Y-15.913
X75.382
G2 X76.969 Y-17.5 I0. J-1.587
G1 Y-20.5
G2 X75.382 Y-22.087 I-1.588 J0.
G1 X43.382
G2 X41.794 Y-20.5 I0. J1.587
G1 Y-17.5
G2 X41.819 Y-17.22 I1.588 J0.
G3 X41.563 Y-16.852 I-0.313 J0.056
G1 X41.25 Y-16.796
X41.181 Y-16.783 Z-8.992
X41.115 Y-16.772 Z-8.969
X41.055 Y-16.761 Z-8.931
X41.006 Y-16.752 Z-8.88
X40.969 Y-16.745 Z-8.82
X40.945 Y-16.741 Z-8.753
X40.938 Y-16.74 Z-8.683
X40.826 Y-17.365
Z-9.683 F300.
X40.834 Y-17.366 Z-9.753 F500.
X40.857 Y-17.371 Z-9.82
X40.894 Y-17.377 Z-9.88
X40.943 Y-17.386 Z-9.931
X41.003 Y-17.397 Z-9.969
X41.069 Y-17.409 Z-9.992
X41.138 Y-17.421 Z-10.
X41.451 Y-17.477
G3 X41.819 Y-17.22 I0.056 J0.313
G2 X43.382 Y-15.913 I1.563 J-0.28
G1 X48.794
Y20.913
X36.122
X14.752 Y-4.556
G2 X13.535 Y-5.123 I-1.216 J1.02
G1 X3.536
G2 X2.413 Y-4.658 I0. J1.588
G1 X-1.123 Y-1.123
G2 X-1.587 Y0. I1.123 J1.123
G1 Y20.
G2 X0. Y21.587 I1.587 J0.
G1 X2.957
Y25.
G2 X4.544 Y26.587 I1.588 J0.
G1 X17.957
Y26.668
X-0.276 Y29.883
G2 X-1.587 Y31.446 I0.276 J1.563
G1 Y41.446
G2 X-0.276 Y43.01 I1.587 J0.
G1 X17.957 Y46.224
Y46.305
X4.544
G2 X2.957 Y47.892 I0. J1.587
G1 Y51.305
X0.
G2 X-1.587 Y52.892 I0. J1.587
G1 Y72.892
G2 X-1.123 Y74.015 I1.587 J0.
G1 X2.413 Y77.55
G2 X3.536 Y78.015 I1.123 J-1.123
G1 X13.535
G2 X14.752 Y77.448 I0. J-1.588
G1 X36.122 Y51.98
X48.794
Y88.805
X43.382
G2 X41.794 Y90.392 I0. J1.588
G1 Y93.392
G2 X43.382 Y94.98 I1.588 J0.
G1 X75.382
G2 X76.969 Y93.392 I0. J-1.587
G1 Y90.392
G2 X75.382 Y88.805 I-1.588 J0.
G1 X68.786
X96.429 Y55.862
X102.688
G2 X103.099 Y55.808 I0. J-1.587
G1 X117.481 Y51.955
X166.995 Y45.875
X168.022 Y45.753
X168.025 Y45.752
X169.038 Y45.629
X169.041
X170.038 Y45.506
X170.041
X171.021 Y45.383
X171.024
X171.989 Y45.26
X171.993
X172.941 Y45.137
X172.944
X173.876 Y45.014
X173.88 Y45.013
X174.796 Y44.891
X174.8 Y44.89
X175.699 Y44.768
X175.702 Y44.767
X176.586 Y44.644
X176.59
X177.457 Y44.521
X177.462 Y44.52
X178.313 Y44.398
X178.317 Y44.397
X179.152 Y44.274
X179.156
X179.974 Y44.151
X179.979 Y44.15
X180.781 Y44.028
X180.786 Y44.027
X181.573 Y43.904
X181.578 Y43.903
X182.347 Y43.781
X182.352 Y43.78
X183.106 Y43.657
X183.111 Y43.656
X183.849 Y43.534
X183.855 Y43.533
X184.576 Y43.41
X184.582 Y43.409
X185.287 Y43.286
X185.293 Y43.285
X185.982 Y43.162
X185.989 Y43.161
X186.662 Y43.039
X186.669 Y43.037
X187.325 Y42.915
X187.332 Y42.913
X187.972 Y42.791
X187.979 Y42.789
X188.603 Y42.666
X188.611 Y42.665
X189.219 Y42.542
X189.227 Y42.54
X189.819 Y42.418
X189.828 Y42.416
X190.403 Y42.293
X190.412 Y42.291
X190.971 Y42.168
X190.981 Y42.166
X191.524 Y42.044
X191.534 Y42.041
X192.061 Y41.919
X192.072 Y41.916
X192.583 Y41.793
X192.595 Y41.79
X193.089 Y41.668
X193.101 Y41.665
X193.579 Y41.542
X193.591 Y41.539
X194.053 Y41.416
X194.067 Y41.412
X194.513 Y41.29
X194.529 Y41.285
X194.958 Y41.163
X194.972 Y41.158
X195.386 Y41.036
X195.404 Y41.03
X195.801 Y40.908
X195.819 Y40.902
X196.2 Y40.779
X196.22 Y40.773
X196.584 Y40.65
X196.604 Y40.643
X196.953 Y40.52
X196.976 Y40.512
X197.308 Y40.389
X197.333 Y40.38
X197.649 Y40.257
X197.675 Y40.247
X197.975 Y40.124
X198.003 Y40.112
X198.287 Y39.99
X198.321 Y39.975
X198.588 Y39.852
X198.62 Y39.837
X198.872 Y39.714
X198.912 Y39.694
X199.147 Y39.571
X199.191 Y39.547
X199.409 Y39.425
X199.451 Y39.4
X199.654 Y39.277
X199.707 Y39.244
X199.893 Y39.121
X199.945 Y39.086
X200.115 Y38.963
X200.179 Y38.915
X200.333 Y38.792
X200.403 Y38.733
X200.54 Y38.61
X200.607 Y38.547
X200.729 Y38.424
X200.809 Y38.337
X200.914 Y38.215
X200.993 Y38.115
X201.082 Y37.992
X201.161 Y37.871
X201.234 Y37.749
X201.274 Y37.678
X201.31 Y37.606
X201.367 Y37.483
X201.402 Y37.401
X201.433 Y37.317
X201.474 Y37.195
X201.503 Y37.096
X201.526 Y36.996
X201.55 Y36.874
X201.566 Y36.773
X201.576 Y36.672
X201.584 Y36.549
X201.588 Y36.446
X201.584 Y36.343
X201.576 Y36.22
X201.566 Y36.119
X201.55 Y36.019
X201.526 Y35.896
X201.503 Y35.796
X201.474 Y35.698
X201.433 Y35.575
X201.402 Y35.491
X201.367 Y35.409
X201.31 Y35.287
X201.274 Y35.214
X201.234 Y35.144
X201.161 Y35.021
X201.082 Y34.901
X200.993 Y34.778
X200.914 Y34.678
X200.809 Y34.555
X200.729 Y34.468
X200.607 Y34.345
X200.54 Y34.282
X200.403 Y34.159
X200.333 Y34.1
X200.179 Y33.978
X200.115 Y33.929
X199.945 Y33.807
X199.893 Y33.771
X199.707 Y33.649
X199.654 Y33.615
X199.451 Y33.492
X199.409 Y33.468
X199.191 Y33.345
X199.147 Y33.321
X198.912 Y33.198
X198.872 Y33.178
X198.62 Y33.056
X198.588 Y33.041
X198.321 Y32.918
X198.288 Y32.903
X198.004 Y32.78
X197.975 Y32.768
X197.675 Y32.646
X197.649 Y32.635
X197.333 Y32.512
X197.308 Y32.503
X196.976 Y32.38
X196.953 Y32.372
X196.604 Y32.249
X196.584 Y32.242
X196.22 Y32.12
X196.2 Y32.113
X195.819 Y31.99
X195.801 Y31.985
X195.404 Y31.862
X195.386 Y31.857
X194.972 Y31.734
X194.958 Y31.73
X194.529 Y31.607
X194.513 Y31.603
X194.067 Y31.48
X194.053 Y31.476
X193.591 Y31.354
X193.579 Y31.35
X193.101 Y31.228
X193.089 Y31.225
X192.595 Y31.102
X192.583 Y31.099
X192.072 Y30.976
X192.061 Y30.974
X191.534 Y30.851
X191.524 Y30.849
X190.981 Y30.726
X190.971 Y30.724
X190.412 Y30.601
X190.403 Y30.599
X189.828 Y30.476
X189.819 Y30.475
X189.227 Y30.352
X189.219 Y30.35
X188.611 Y30.227
X188.603 Y30.226
X187.979 Y30.103
X187.972 Y30.102
X187.332 Y29.979
X187.325 Y29.978
X186.669 Y29.855
X186.662 Y29.854
X185.989 Y29.731
X185.982 Y29.73
X185.293 Y29.607
X185.287 Y29.606
X184.582 Y29.483
X184.576 Y29.482
X183.855 Y29.36
X183.849 Y29.359
X183.111 Y29.236
X183.106 Y29.235
X182.352 Y29.112
X182.347
X181.578 Y28.989
X181.573 Y28.988
X180.786 Y28.865
X180.781
X179.979 Y28.742
X179.974 Y28.741
X179.156 Y28.619
X179.152 Y28.618
X178.317 Y28.495
X178.312
X177.461 Y28.372
X177.457 Y28.371
X176.59 Y28.249
X176.586 Y28.248
X175.702 Y28.125
X175.699
X174.8 Y28.002
X174.796
X173.88 Y27.879
X173.876 Y27.878
X172.944 Y27.756
X172.941 Y27.755
X171.993 Y27.633
X171.989 Y27.632
X171.024 Y27.509
X171.021
X170.041 Y27.386
X170.038
X169.041 Y27.263
X169.038
X168.025 Y27.14
X168.022
X166.995 Y27.017
X117.481 Y20.938
X103.099 Y17.084
G2 X102.688 Y17.03 I-0.411 J1.533
G1 X96.429
X68.786 Y-15.913
X75.382
G2 X76.969 Y-17.5 I0. J-1.587
G1 Y-20.5
G2 X75.382 Y-22.087 I-1.588 J0.
G1 X43.382
G2 X41.794 Y-20.5 I0. J1.587
G1 Y-17.5
G2 X41.819 Y-17.22 I1.588 J0.
G3 X41.563 Y-16.852 I-0.313 J0.056
G1 X41.25 Y-16.796
X41.181 Y-16.783 Z-9.992
X41.115 Y-16.772 Z-9.969
X41.055 Y-16.761 Z-9.931
X41.006 Y-16.752 Z-9.88
X40.969 Y-16.745 Z-9.82
X40.945 Y-16.741 Z-9.753
X40.938 Y-16.74 Z-9.683
X40.826 Y-17.365
Z-10.183 F300.
X40.834 Y-17.366 Z-10.253 F500.
X40.857 Y-17.371 Z-10.32
X40.894 Y-17.377 Z-10.38
X40.943 Y-17.386 Z-10.431
X41.003 Y-17.397 Z-10.469
X41.069 Y-17.409 Z-10.492
X41.138 Y-17.421 Z-10.5
X41.451 Y-17.477
G3 X41.819 Y-17.22 I0.056 J0.313
G2 X43.382 Y-15.913 I1.563 J-0.28
G1 X48.794
Y20.913
X36.122
X14.752 Y-4.556
G2 X13.535 Y-5.123 I-1.216 J1.02
G1 X3.536
G2 X2.413 Y-4.658 I0. J1.588
G1 X-1.123 Y-1.123
G2 X-1.587 Y0. I1.123 J1.123
G1 Y20.
G2 X0. Y21.587 I1.587 J0.
G1 X2.957
Y25.
G2 X4.544 Y26.587 I1.588 J0.
G1 X17.957
Y26.668
X-0.276 Y29.883
G2 X-1.587 Y31.446 I0.276 J1.563
G1 Y41.446
G2 X-0.276 Y43.01 I1.587 J0.
G1 X17.957 Y46.224
Y46.305
X4.544
G2 X2.957 Y47.892 I0. J1.587
G1 Y51.305
X0.
G2 X-1.587 Y52.892 I0. J1.587
G1 Y72.892
G2 X-1.123 Y74.015 I1.587 J0.
G1 X2.413 Y77.55
G2 X3.536 Y78.015 I1.123 J-1.123
G1 X13.535
G2 X14.752 Y77.448 I0. J-1.588
G1 X36.122 Y51.98
X48.794
Y88.805
X43.382
G2 X41.794 Y90.392 I0. J1.588
G1 Y93.392
G2 X43.382 Y94.98 I1.588 J0.
G1 X75.382
G2 X76.969 Y93.392 I0. J-1.587
G1 Y90.392
G2 X75.382 Y88.805 I-1.588 J0.
G1 X68.786
X96.429 Y55.862
X102.688
G2 X103.099 Y55.808 I0. J-1.587
G1 X117.481 Y51.955
X166.995 Y45.875
X168.022 Y45.753
X168.025 Y45.752
X169.038 Y45.629
X169.041
X170.038 Y45.506
X170.041
X171.021 Y45.383
X171.024
X171.989 Y45.26
X171.993
X172.941 Y45.137
X172.944
X173.876 Y45.014
X173.88 Y45.013
X174.796 Y44.891
X174.8 Y44.89
X175.699 Y44.768
X175.702 Y44.767
X176.586 Y44.644
X176.59
X177.457 Y44.521
X177.462 Y44.52
X178.313 Y44.398
X178.317 Y44.397
X179.152 Y44.274
X179.156
X179.974 Y44.151
X179.979 Y44.15
X180.781 Y44.028
X180.786 Y44.027
X181.573 Y43.904
X181.578 Y43.903
X182.347 Y43.781
X182.352 Y43.78
X183.106 Y43.657
X183.111 Y43.656
X183.849 Y43.534
X183.855 Y43.533
X184.576 Y43.41
X184.582 Y43.409
X185.287 Y43.286
X185.293 Y43.285
X185.982 Y43.162
X185.989 Y43.161
X186.662 Y43.039
X186.669 Y43.037
X187.325 Y42.915
X187.332 Y42.913
X187.972 Y42.791
X187.979 Y42.789
X188.603 Y42.666
X188.611 Y42.665
X189.219 Y42.542
X189.227 Y42.54
X189.819 Y42.418
X189.828 Y42.416
X190.403 Y42.293
X190.412 Y42.291
X190.971 Y42.168
X190.981 Y42.166
X191.524 Y42.044
X191.534 Y42.041
X192.061 Y41.919
X192.072 Y41.916
X192.583 Y41.793
X192.595 Y41.79
X193.089 Y41.668
X193.101 Y41.665
X193.579 Y41.542
X193.591 Y41.539
X194.053 Y41.416
X194.067 Y41.412
X194.513 Y41.29
X194.529 Y41.285
X194.958 Y41.163
X194.972 Y41.158
X195.386 Y41.036
X195.404 Y41.03
X195.801 Y40.908
X195.819 Y40.902
X196.2 Y40.779
X196.22 Y40.773
X196.584 Y40.65
X196.604 Y40.643
X196.953 Y40.52
X196.976 Y40.512
X197.308 Y40.389
X197.333 Y40.38
X197.649 Y40.257
X197.675 Y40.247
X197.975 Y40.124
X198.003 Y40.112
X198.287 Y39.99
X198.321 Y39.975
X198.588 Y39.852
X198.62 Y39.837
X198.872 Y39.714
X198.912 Y39.694
X199.147 Y39.571
X199.191 Y39.547
X199.409 Y39.425
X199.451 Y39.4
X199.654 Y39.277
X199.707 Y39.244
X199.893 Y39.121
X199.945 Y39.086
X200.115 Y38.963
X200.179 Y38.915
X200.333 Y38.792
X200.403 Y38.733
X200.54 Y38.61
X200.607 Y38.547
X200.729 Y38.424
X200.809 Y38.337
X200.914 Y38.215
X200.993 Y38.115
X201.082 Y37.992
X201.161 Y37.871
X201.234 Y37.749
X201.274 Y37.678
X201.31 Y37.606
X201.367 Y37.483
X201.402 Y37.401
X201.433 Y37.317
X201.474 Y37.195
X201.503 Y37.096
X201.526 Y36.996
X201.55 Y36.874
X201.566 Y36.773
X201.576 Y36.672
X201.584 Y36.549
X201.588 Y36.446
X201.584 Y36.343
X201.576 Y36.22
X201.566 Y36.119
X201.55 Y36.019
X201.526 Y35.896
X201.503 Y35.796
X201.474 Y35.698
X201.433 Y35.575
X201.402 Y35.491
X201.367 Y35.409
X201.31 Y35.287
X201.274 Y35.214
X201.234 Y35.144
X201.161 Y35.021
X201.082 Y34.901
X200.993 Y34.778
X200.914 Y34.678
X200.809 Y34.555
X200.729 Y34.468
X200.607 Y34.345
X200.54 Y34.282
X200.403 Y34.159
X200.333 Y34.1
X200.179 Y33.978
X200.115 Y33.929
X199.945 Y33.807
X199.893 Y33.771
X199.707 Y33.649
X199.654 Y33.615
X199.451 Y33.492
X199.409 Y33.468
X199.191 Y33.345
X199.147 Y33.321
X198.912 Y33.198
X198.872 Y33.178
X198.62 Y33.056
X198.588 Y33.041
X198.321 Y32.918
X198.288 Y32.903
X198.004 Y32.78
X197.975 Y32.768
X197.675 Y32.646
X197.649 Y32.635
X197.333 Y32.512
X197.308 Y32.503
X196.976 Y32.38
X196.953 Y32.372
X196.604 Y32.249
X196.584 Y32.242
X196.22 Y32.12
X196.2 Y32.113
X195.819 Y31.99
X195.801 Y31.985
X195.404 Y31.862
X195.386 Y31.857
X194.972 Y31.734
X194.958 Y31.73
X194.529 Y31.607
X194.513 Y31.603
X194.067 Y31.48
X194.053 Y31.476
X193.591 Y31.354
X193.579 Y31.35
X193.101 Y31.228
X193.089 Y31.225
X192.595 Y31.102
X192.583 Y31.099
X192.072 Y30.976
X192.061 Y30.974
X191.534 Y30.851
X191.524 Y30.849
X190.981 Y30.726
X190.971 Y30.724
X190.412 Y30.601
X190.403 Y30.599
X189.828 Y30.476
X189.819 Y30.475
X189.227 Y30.352
X189.219 Y30.35
X188.611 Y30.227
X188.603 Y30.226
X187.979 Y30.103
X187.972 Y30.102
X187.332 Y29.979
X187.325 Y29.978
X186.669 Y29.855
X186.662 Y29.854
X185.989 Y29.731
X185.982 Y29.73
X185.293 Y29.607
X185.287 Y29.606
X184.582 Y29.483
X184.576 Y29.482
X183.855 Y29.36
X183.849 Y29.359
X183.111 Y29.236
X183.106 Y29.235
X182.352 Y29.112
X182.347
X181.578 Y28.989
X181.573 Y28.988
X180.786 Y28.865
X180.781
X179.979 Y28.742
X179.974 Y28.741
X179.156 Y28.619
X179.152 Y28.618
X178.317 Y28.495
X178.312
X177.461 Y28.372
X177.457 Y28.371
X176.59 Y28.249
X176.586 Y28.248
X175.702 Y28.125
X175.699
X174.8 Y28.002
X174.796
X173.88 Y27.879
X173.876 Y27.878
X172.944 Y27.756
X172.941 Y27.755
X171.993 Y27.633
X171.989 Y27.632
X171.024 Y27.509
X171.021
X170.041 Y27.386
X170.038
X169.041 Y27.263
X169.038
X168.025 Y27.14
X168.022
X166.995 Y27.017
X117.481 Y20.938
X103.099 Y17.084
G2 X102.688 Y17.03 I-0.411 J1.533
G1 X96.429
X68.786 Y-15.913
X75.382
G2 X76.969 Y-17.5 I0. J-1.587
G1 Y-20.5
G2 X75.382 Y-22.087 I-1.588 J0.
G1 X43.382
G2 X41.794 Y-20.5 I0. J1.587
G1 Y-17.5
G2 X41.819 Y-17.22 I1.588 J0.
G3 X41.563 Y-16.852 I-0.313 J0.056
G1 X41.25 Y-16.796
X41.181 Y-16.783 Z-10.492
X41.115 Y-16.772 Z-10.469
X41.055 Y-16.761 Z-10.431
X41.006 Y-16.752 Z-10.38
X40.969 Y-16.745 Z-10.32
X40.945 Y-16.741 Z-10.253
X40.938 Y-16.74 Z-10.183
G0 Z16.

M9
M30
